;FLAVOR:Marlin
;TIME:4808
;Filament used: 2.74845m
;Layer height: 0.2
;MINX:69.752
;MINY:71.5
;MINZ:0.2
;MAXX:150.248
;MAXY:148.498
;MAXZ:11
;Generated with Cura_SteamEngine 5.4.0
M82 ;absolute extrusion mode
; Ender 3 Custom Start G-code
G92 E0 ; Reset Extruder
G28 ; Home all axes
M104 S175 ; Start heating up the nozzle most of the way
M190 S60 ; Start heating the bed, wait until target temperature reached
M109 S200 ; Finish heating the nozzle
G1 Z2.0 F3000 ; Move Z Axis up little to prevent scratching of Heat Bed
G1 X0.1 Y20 Z0.3 F5000.0 ; Move to start position
G1 X0.1 Y200.0 Z0.3 F1500.0 E15 ; Draw the first line
G1 X0.4 Y200.0 Z0.3 F5000.0 ; Move to side a little
G1 X0.4 Y20 Z0.3 F1500.0 E30 ; Draw the second line
G92 E0 ; Reset Extruder
G1 Z2.0 F3000 ; Move Z Axis up little to prevent scratching of Heat Bed
G1 X5 Y20 Z0.3 F5000.0 ; Move over to prevent blob squish
G92 E0
G92 E0
G1 F1500 E-6.5
;LAYER_COUNT:55
;LAYER:0
M107
G0 F6000 X73.465 Y74.85 Z0.2
;TYPE:SKIRT
G1 F1500 E0
G1 F1200 X73.686 Y74.643 E0.01007
G1 X74.371 Y74.055 E0.0401
G1 X75.193 Y73.468 E0.07369
G1 X76.014 Y72.982 E0.10542
G1 X76.273 Y72.845 E0.11517
G1 X77.152 Y72.428 E0.14753
G1 X77.998 Y72.112 E0.17757
G1 X79.293 Y71.775 E0.22207
G1 X79.62 Y71.71 E0.23316
G1 X80.513 Y71.576 E0.26319
G1 X81.538 Y71.512 E0.29735
G1 X82.209 Y71.502 E0.31967
G1 X137.601 Y71.5 E2.16202
G1 X138.513 Y71.514 E2.19235
G1 X139.488 Y71.576 E2.22485
G1 X140.527 Y71.737 E2.25982
G1 X140.834 Y71.801 E2.27025
G1 X141.776 Y72.042 E2.30259
G1 X142.662 Y72.352 E2.33381
G1 X143.573 Y72.765 E2.36708
G1 X144.173 Y73.095 E2.38985
G1 X144.503 Y73.29 E2.4026
G1 X145.26 Y73.784 E2.43267
G1 X146.085 Y74.434 E2.4676
G1 X146.9 Y75.215 E2.50514
G1 X147.107 Y75.436 E2.51521
G1 X147.695 Y76.121 E2.54524
G1 X148.282 Y76.943 E2.57884
G1 X148.768 Y77.764 E2.61057
G1 X148.905 Y78.023 E2.62031
G1 X149.322 Y78.902 E2.65267
G1 X149.638 Y79.748 E2.68271
G1 X149.966 Y80.999 E2.72572
G1 X150.035 Y81.345 E2.73746
G1 X150.175 Y82.273 E2.76867
G1 X150.238 Y83.277 E2.80213
G1 X150.248 Y83.904 E2.82299
G1 X150.248 Y136.026 E4.55657
G1 X150.234 Y136.781 E4.58169
G1 X150.171 Y137.755 E4.61415
G1 X150.02 Y138.736 E4.64716
G1 X149.96 Y139.028 E4.65708
G1 X149.722 Y139.973 E4.68949
G1 X149.402 Y140.892 E4.72186
G1 X149.008 Y141.77 E4.75387
G1 X148.708 Y142.324 E4.77482
G1 X148.512 Y142.663 E4.78784
G1 X147.986 Y143.481 E4.82019
G1 X147.409 Y144.227 E4.85156
G1 X146.535 Y145.15 E4.89384
G1 X146.314 Y145.357 E4.90391
G1 X145.629 Y145.945 E4.93393
G1 X144.807 Y146.532 E4.96753
G1 X143.986 Y147.018 E4.99926
G1 X143.727 Y147.155 E5.00901
G1 X142.848 Y147.572 E5.04137
G1 X142.002 Y147.888 E5.0714
G1 X140.707 Y148.225 E5.11591
G1 X140.38 Y148.29 E5.127
G1 X139.487 Y148.424 E5.15703
G1 X138.462 Y148.488 E5.19119
G1 X137.804 Y148.498 E5.21308
G1 X82.236 Y148.498 E7.06128
G1 X81.491 Y148.485 E7.08606
G1 X80.517 Y148.423 E7.11852
G1 X79.531 Y148.272 E7.1517
G1 X79.229 Y148.21 E7.16195
G1 X78.284 Y147.974 E7.19435
G1 X77.365 Y147.654 E7.22671
G1 X76.488 Y147.262 E7.25866
G1 X75.934 Y146.965 E7.27957
G1 X75.611 Y146.778 E7.29198
G1 X74.778 Y146.242 E7.32493
G1 X74.031 Y145.666 E7.3563
G1 X73.1 Y144.785 E7.39894
G1 X72.893 Y144.564 E7.40901
G1 X72.305 Y143.879 E7.43903
G1 X71.698 Y143.026 E7.47385
G1 X71.203 Y142.181 E7.50643
G1 X71.065 Y141.917 E7.51633
G1 X70.653 Y141.036 E7.54868
G1 X70.342 Y140.188 E7.57872
G1 X70.024 Y138.952 E7.62117
G1 X69.96 Y138.63 E7.63209
G1 X69.826 Y137.737 E7.66212
G1 X69.762 Y136.708 E7.69641
G1 X69.752 Y136.034 E7.71883
G1 X69.752 Y83.95 E9.45116
G1 X69.765 Y83.234 E9.47497
G1 X69.828 Y82.262 E9.50737
G1 X69.976 Y81.291 E9.54004
G1 X70.038 Y80.986 E9.55039
G1 X70.274 Y80.041 E9.58279
G1 X70.593 Y79.12 E9.61521
G1 X70.986 Y78.241 E9.64723
G1 X71.295 Y77.67 E9.66882
G1 X71.49 Y77.334 E9.68174
G1 X72.016 Y76.516 E9.71409
G1 X72.594 Y75.77 E9.74548
G1 X73.465 Y74.85 E9.78762
G0 F6000 X73.739 Y75.142
G1 F1200 X73.947 Y74.947 E9.7971
G1 X74.632 Y74.359 E9.82713
G1 X75.425 Y73.794 E9.85951
G1 X76.202 Y73.335 E9.88953
G1 X76.445 Y73.206 E9.89868
G1 X77.292 Y72.803 E9.92987
G1 X78.138 Y72.487 E9.95991
G1 X79.371 Y72.167 E10.00228
G1 X79.679 Y72.106 E10.01272
G1 X80.572 Y71.972 E10.04276
G1 X81.544 Y71.912 E10.07515
G1 X82.209 Y71.902 E10.09727
G1 X137.595 Y71.9 E11.93941
G1 X138.488 Y71.913 E11.96912
G1 X139.427 Y71.971 E12.00041
G1 X140.446 Y72.129 E12.03471
G1 X140.735 Y72.189 E12.04452
G1 X141.644 Y72.42 E12.07572
G1 X142.497 Y72.717 E12.10576
G1 X143.38 Y73.116 E12.13799
G1 X143.97 Y73.44 E12.16037
G1 X144.284 Y73.625 E12.1725
G1 X145.041 Y74.119 E12.20256
G1 X145.808 Y74.723 E12.23503
G1 X146.608 Y75.489 E12.27187
G1 X146.803 Y75.697 E12.28135
G1 X147.391 Y76.382 E12.31138
G1 X147.956 Y77.175 E12.34376
G1 X148.415 Y77.952 E12.37378
G1 X148.544 Y78.195 E12.38293
G1 X148.947 Y79.042 E12.41413
G1 X149.263 Y79.888 E12.44416
G1 X149.579 Y81.1 E12.48582
G1 X149.639 Y81.405 E12.49616
G1 X149.779 Y82.333 E12.52738
G1 X149.838 Y83.283 E12.55903
G1 X149.848 Y83.91 E12.57989
G1 X149.848 Y136.019 E14.31304
G1 X149.835 Y136.756 E14.33756
G1 X149.776 Y137.694 E14.36882
G1 X149.628 Y138.656 E14.40119
G1 X149.572 Y138.931 E14.41053
G1 X149.344 Y139.842 E14.44176
G1 X149.037 Y140.729 E14.47298
G1 X148.656 Y141.58 E14.50399
G1 X148.362 Y142.124 E14.52456
G1 X148.175 Y142.447 E14.53697
G1 X147.669 Y143.237 E14.56817
G1 X147.118 Y143.952 E14.5982
G1 X146.261 Y144.858 E14.63968
G1 X146.053 Y145.053 E14.64916
G1 X145.368 Y145.641 E14.67919
G1 X144.575 Y146.206 E14.71157
G1 X143.798 Y146.665 E14.74159
G1 X143.555 Y146.794 E14.75074
G1 X142.708 Y147.197 E14.78193
G1 X141.862 Y147.513 E14.81197
G1 X140.629 Y147.833 E14.85434
G1 X140.321 Y147.894 E14.86478
G1 X139.428 Y148.028 E14.89482
G1 X138.456 Y148.088 E14.92721
G1 X137.798 Y148.098 E14.94909
G1 X82.243 Y148.098 E16.79686
G1 X81.516 Y148.086 E16.82104
G1 X80.578 Y148.028 E16.8523
G1 X79.611 Y147.88 E16.88484
G1 X79.325 Y147.822 E16.89455
G1 X78.415 Y147.596 E16.92573
G1 X77.528 Y147.289 E16.95695
G1 X76.677 Y146.909 E16.98795
G1 X76.134 Y146.618 E17.00844
G1 X75.827 Y146.441 E17.02023
G1 X75.022 Y145.925 E17.05203
G1 X74.306 Y145.375 E17.08206
G1 X73.392 Y144.511 E17.12389
G1 X73.197 Y144.303 E17.13337
G1 X72.609 Y143.618 E17.1634
G1 X72.043 Y142.824 E17.19583
G1 X71.557 Y141.995 E17.22779
G1 X71.427 Y141.747 E17.2371
G1 X71.029 Y140.898 E17.26829
G1 X70.718 Y140.05 E17.29833
G1 X70.416 Y138.874 E17.33872
G1 X70.356 Y138.571 E17.34899
G1 X70.222 Y137.678 E17.37902
G1 X70.162 Y136.702 E17.41155
G1 X70.152 Y136.028 E17.43397
G1 X70.152 Y83.957 E19.16585
G1 X70.164 Y83.259 E19.18907
G1 X70.223 Y82.322 E19.2203
G1 X70.368 Y81.37 E19.25233
G1 X70.426 Y81.082 E19.2621
G1 X70.652 Y80.171 E19.29332
G1 X70.958 Y79.283 E19.32456
G1 X71.338 Y78.431 E19.35559
G1 X71.641 Y77.871 E19.37676
G1 X71.827 Y77.55 E19.3891
G1 X72.333 Y76.76 E19.42031
G1 X72.885 Y76.045 E19.45035
G1 X73.739 Y75.142 E19.49169
G0 F6000 X74.013 Y75.434
G1 F1200 X74.208 Y75.251 E19.50058
G1 X74.893 Y74.663 E19.53061
G1 X75.628 Y74.138 E19.56065
G1 X76.39 Y73.688 E19.59008
G1 X76.617 Y73.567 E19.59864
G1 X77.432 Y73.178 E19.62868
G1 X78.278 Y72.862 E19.65871
G1 X79.448 Y72.559 E19.69891
G1 X79.738 Y72.502 E19.70874
G1 X80.631 Y72.368 E19.73877
G1 X81.55 Y72.312 E19.7694
G1 X82.209 Y72.302 E19.79132
G1 X137.59 Y72.3 E21.6333
G1 X138.464 Y72.312 E21.66237
G1 X139.366 Y72.366 E21.69242
G1 X140.365 Y72.521 E21.72605
G1 X140.637 Y72.577 E21.73528
G1 X141.512 Y72.798 E21.7653
G1 X142.365 Y73.095 E21.79534
G1 X143.188 Y73.467 E21.82538
G1 X143.767 Y73.784 E21.84734
G1 X144.065 Y73.96 E21.85885
G1 X144.822 Y74.454 E21.88891
G1 X145.531 Y75.012 E21.91892
G1 X146.316 Y75.763 E21.95506
G1 X146.499 Y75.958 E21.96395
G1 X147.087 Y76.643 E21.99398
G1 X147.612 Y77.378 E22.02402
G1 X148.062 Y78.14 E22.05345
G1 X148.183 Y78.367 E22.06201
G1 X148.572 Y79.182 E22.09204
G1 X148.888 Y80.028 E22.12208
G1 X149.187 Y81.178 E22.1616
G1 X149.244 Y81.465 E22.17133
G1 X149.38 Y82.358 E22.20138
G1 X149.438 Y83.289 E22.2324
G1 X149.448 Y83.916 E22.25326
G1 X149.448 Y136.012 E23.98598
G1 X149.436 Y136.732 E24.00993
G1 X149.381 Y137.633 E24.03995
G1 X149.236 Y138.577 E24.07172
G1 X149.184 Y138.835 E24.08047
G1 X148.966 Y139.712 E24.11053
G1 X148.672 Y140.566 E24.14057
G1 X148.304 Y141.39 E24.17058
G1 X148.016 Y141.924 E24.19076
G1 X147.838 Y142.232 E24.2026
G1 X147.352 Y142.993 E24.23263
G1 X146.801 Y143.708 E24.26265
G1 X145.987 Y144.566 E24.30199
G1 X145.792 Y144.749 E24.31088
G1 X145.107 Y145.337 E24.34091
G1 X144.372 Y145.862 E24.37095
G1 X143.61 Y146.312 E24.40038
G1 X143.383 Y146.433 E24.40894
G1 X142.568 Y146.822 E24.43898
G1 X141.722 Y147.138 E24.46901
G1 X140.552 Y147.441 E24.50921
G1 X140.262 Y147.498 E24.51904
G1 X139.369 Y147.632 E24.54907
G1 X138.45 Y147.688 E24.5797
G1 X137.792 Y147.698 E24.60158
G1 X82.249 Y147.698 E26.44895
G1 X81.54 Y147.687 E26.47254
G1 X80.638 Y147.633 E26.50259
G1 X79.69 Y147.488 E26.53449
G1 X79.421 Y147.434 E26.54361
G1 X78.545 Y147.218 E26.57362
G1 X77.691 Y146.924 E26.60366
G1 X76.866 Y146.556 E26.63371
G1 X76.334 Y146.271 E26.65378
G1 X76.027 Y146.094 E26.66557
G1 X75.266 Y145.608 E26.6956
G1 X74.55 Y145.058 E26.72563
G1 X73.684 Y144.237 E26.76532
G1 X73.501 Y144.042 E26.77421
G1 X72.913 Y143.357 E26.80424
G1 X72.388 Y142.622 E26.83428
G1 X71.911 Y141.809 E26.86563
G1 X71.789 Y141.577 E26.87435
G1 X71.405 Y140.76 E26.90438
G1 X71.094 Y139.912 E26.93442
G1 X70.808 Y138.797 E26.9727
G1 X70.752 Y138.512 E26.98236
G1 X70.618 Y137.619 E27.0124
G1 X70.562 Y136.696 E27.04315
G1 X70.552 Y136.022 E27.06557
G1 X70.552 Y83.963 E28.79706
G1 X70.563 Y83.283 E28.81968
G1 X70.618 Y82.382 E28.84971
G1 X70.76 Y81.448 E28.88113
G1 X70.814 Y81.178 E28.89029
G1 X71.03 Y80.301 E28.92033
G1 X71.323 Y79.446 E28.95039
G1 X71.69 Y78.621 E28.98042
G1 X71.987 Y78.071 E29.00121
G1 X72.164 Y77.765 E29.01297
G1 X72.65 Y77.004 E29.043
G1 X73.202 Y76.289 E29.07304
G1 X74.013 Y75.434 E29.11224
G1 F1500 E22.61224
;MESH:nuvu-enclosure-VU Meter Retainer.stl
G0 F6000 X83.062 Y84.617
G0 X85.23 Y87.342
;TYPE:WALL-INNER
G1 F1500 E29.11224
G1 F1200 X84.709 Y87.592 E29.13146
G1 X84.295 Y87.655 E29.14539
G1 X83.858 Y87.61 E29.16
G1 X83.299 Y87.359 E29.18038
G1 X82.984 Y87.053 E29.19498
G1 X82.759 Y86.725 E29.20821
G1 X82.64 Y86.363 E29.22089
G1 X82.602 Y85.847 E29.2381
G1 X82.676 Y85.508 E29.24964
G1 X82.842 Y85.119 E29.2637
G1 X83.195 Y84.74 E29.28093
G1 X83.375 Y84.607 E29.28837
G1 X83.79 Y84.408 E29.30368
G1 X84.209 Y84.345 E29.31778
G1 X84.621 Y84.385 E29.33154
G1 X84.85 Y84.456 E29.33952
G1 X85.152 Y84.621 E29.35096
G1 X85.461 Y84.869 E29.36414
G1 X85.743 Y85.28 E29.38072
G1 X85.866 Y85.682 E29.3947
G1 X85.904 Y86.074 E29.4078
G1 X85.848 Y86.416 E29.41933
G1 X85.665 Y86.87 E29.43561
G1 X85.23 Y87.342 E29.45696
G1 F1500 E22.95696
G0 F6000 X85.304 Y87.409
G0 X84.759 Y87.767
G0 X84.201 Y132.169
G0 X84.709 Y135.592
G1 F1500 E29.45696
G1 F1200 X84.288 Y135.656 E29.47112
G1 X83.861 Y135.611 E29.4854
G1 X83.309 Y135.364 E29.50552
G1 X83.029 Y135.118 E29.51791
G1 X82.76 Y134.725 E29.53375
G1 X82.64 Y134.363 E29.54644
G1 X82.602 Y133.847 E29.56364
G1 X82.676 Y133.508 E29.57519
G1 X82.842 Y133.119 E29.58925
G1 X83.195 Y132.74 E29.60648
G1 X83.375 Y132.607 E29.61392
G1 X83.793 Y132.407 E29.62933
G1 X84.207 Y132.35 E29.64323
G1 X84.621 Y132.385 E29.65705
G1 X84.85 Y132.456 E29.66503
G1 X85.152 Y132.621 E29.67647
G1 X85.464 Y132.871 E29.68977
G1 X85.733 Y133.273 E29.70586
G1 X85.858 Y133.605 E29.71766
G1 X85.904 Y134.061 E29.7329
G1 X85.851 Y134.423 E29.74507
G1 X85.659 Y134.88 E29.76156
G1 X85.304 Y135.261 E29.77888
G1 X85.123 Y135.394 E29.78635
G1 X84.709 Y135.592 E29.80161
G1 F1500 E23.30161
G0 F6000 X82.889 Y135.236
G0 X81.551 Y135.236
G0 X81.675 Y136.898
G1 F1500 E29.80161
G1 F1200 X138.238 Y136.898 E31.6829
G1 X138.384 Y136.869 E31.68786
G1 X138.522 Y136.785 E31.69323
G1 X138.648 Y136.575 E31.70137
G1 X138.649 Y83.513 E33.46622
G1 X138.62 Y83.366 E33.47121
G1 X138.535 Y83.228 E33.4766
G1 X138.368 Y83.127 E33.48309
G1 X138.235 Y83.1 E33.4876
G1 X81.762 Y83.101 E35.3659
G1 X81.616 Y83.13 E35.37085
G1 X81.478 Y83.215 E35.37624
G1 X81.378 Y83.382 E35.38272
G1 X81.351 Y83.512 E35.38713
G1 X81.352 Y136.488 E37.14912
G1 X81.381 Y136.634 E37.15407
G1 X81.465 Y136.772 E37.15945
G1 X81.675 Y136.898 E37.16759
G1 F1500 E30.66759
G0 F6000 X81.572 Y136.719
G0 X133.2 Y136.698
G0 X132.594 Y132.031
G0 X132.797 Y131.772
G1 F1500 E37.16759
G1 F1200 X132.5 Y131.851 E37.17781
G1 X87.435 Y131.847 E38.67668
G1 X87.226 Y131.785 E38.68393
G1 X86.98 Y131.551 E38.69523
G1 X86.9 Y131.331 E38.70301
G1 X86.904 Y88.676 E40.12172
G1 X86.996 Y88.423 E40.13068
G1 X87.144 Y88.266 E40.13785
G1 X87.377 Y88.15 E40.14651
G1 X132.566 Y88.153 E41.6495
G1 X132.84 Y88.254 E41.65921
G1 X133.021 Y88.451 E41.66811
G1 X133.098 Y88.691 E41.6765
G1 X133.096 Y131.325 E43.09451
G1 X133.028 Y131.538 E43.10195
G1 X132.797 Y131.772 E43.11288
G1 F1500 E36.61288
G0 F6000 X133.2 Y131.22
G0 X132.803 Y131.971
G0 X134.196 Y133.01
G0 X134.796 Y135.358
G1 F1500 E43.11288
G1 F1200 X134.484 Y135.053 E43.12739
G1 X134.306 Y134.793 E43.13787
G1 X134.14 Y134.4 E43.15206
G1 X134.101 Y133.85 E43.1704
G1 X134.194 Y133.445 E43.18422
G1 X134.338 Y133.134 E43.19562
G1 X134.77 Y132.657 E43.21703
G1 X135.289 Y132.409 E43.23616
G1 X135.704 Y132.345 E43.25012
G1 X136.121 Y132.385 E43.26406
G1 X136.35 Y132.456 E43.27203
G1 X136.652 Y132.621 E43.28348
G1 X136.963 Y132.872 E43.29677
G1 X137.192 Y133.205 E43.31021
G1 X137.357 Y133.595 E43.3243
G1 X137.399 Y134.052 E43.33956
G1 X137.353 Y134.418 E43.35183
G1 X137.159 Y134.88 E43.36849
G1 X136.804 Y135.261 E43.38582
G1 X136.623 Y135.394 E43.39329
G1 X136.209 Y135.592 E43.40855
G1 X135.788 Y135.656 E43.42271
G1 X135.361 Y135.611 E43.43699
G1 X134.796 Y135.358 E43.45758
G1 F1500 E36.95758
G0 F6000 X134.738 Y135.441
G0 X134.298 Y134.352
G0 X134.263 Y133.863
G0 X134.346 Y133.495
G0 X135.238 Y132.233
G0 X135.436 Y87.8
G0 X135.359 Y87.612
G1 F1500 E43.45758
G1 F1200 X134.818 Y87.362 E43.47741
G1 X134.522 Y87.111 E43.49031
G1 X134.267 Y86.726 E43.50567
G1 X134.14 Y86.393 E43.51753
G1 X134.102 Y85.872 E43.5349
G1 X134.176 Y85.508 E43.54726
G1 X134.342 Y85.119 E43.56132
G1 X134.695 Y84.74 E43.57855
G1 X134.875 Y84.607 E43.58599
G1 X135.29 Y84.408 E43.6013
G1 X135.709 Y84.345 E43.61539
G1 X136.121 Y84.385 E43.62916
G1 X136.35 Y84.456 E43.63713
G1 X136.652 Y84.621 E43.64858
G1 X136.967 Y84.878 E43.6621
G1 X137.192 Y85.205 E43.6753
G1 X137.357 Y85.595 E43.68939
G1 X137.399 Y86.052 E43.70465
G1 X137.353 Y86.418 E43.71692
G1 X137.159 Y86.88 E43.73359
G1 X136.804 Y87.26 E43.75088
G1 X136.623 Y87.394 E43.75837
G1 X136.205 Y87.594 E43.77379
G1 X135.793 Y87.65 E43.78762
G1 X135.359 Y87.612 E43.80211
G0 F6000 X135.463 Y87.219
;TYPE:WALL-OUTER
G1 F1200 X135.031 Y87.023 E43.81788
G1 X134.836 Y86.855 E43.82644
G1 X134.624 Y86.546 E43.83891
G1 X134.536 Y86.303 E43.8475
G1 X134.506 Y85.878 E43.86167
G1 X134.582 Y85.55 E43.87287
G1 X134.706 Y85.315 E43.88171
G1 X135.014 Y84.984 E43.89675
G1 X135.411 Y84.794 E43.91139
G1 X135.745 Y84.75 E43.92259
G1 X136.122 Y84.787 E43.93519
G1 X136.497 Y84.997 E43.94949
G1 X136.656 Y85.138 E43.95655
G1 X136.886 Y85.477 E43.97018
G1 X136.957 Y85.674 E43.97714
G1 X136.999 Y86.032 E43.98913
G1 X136.966 Y86.294 E43.99792
G1 X136.819 Y86.657 E44.01094
G1 X136.484 Y87.017 E44.0273
G1 X136.091 Y87.205 E44.04179
G1 X135.781 Y87.25 E44.05221
G1 X135.463 Y87.219 E44.06283
G1 F1500 E37.56283
G0 F6000 X135.339 Y87.493
G0 X135.799 Y87.831
G0 X135.697 Y132.163
G0 X135.466 Y135.22
G1 F1500 E44.06283
G1 F1200 X135.026 Y135.023 E44.07887
G1 X134.814 Y134.828 E44.08845
G1 X134.614 Y134.524 E44.10055
G1 X134.532 Y134.274 E44.1093
G1 X134.504 Y133.88 E44.12244
G1 X134.573 Y133.573 E44.13291
G1 X134.695 Y133.328 E44.14201
G1 X135.018 Y132.986 E44.15765
G1 X135.409 Y132.795 E44.17213
G1 X135.745 Y132.75 E44.1834
G1 X136.122 Y132.787 E44.196
G1 X136.497 Y132.998 E44.21031
G1 X136.682 Y133.169 E44.21869
G1 X136.886 Y133.477 E44.23098
G1 X136.957 Y133.674 E44.23795
G1 X136.999 Y134.032 E44.24993
G1 X136.966 Y134.294 E44.25872
G1 X136.819 Y134.657 E44.27174
