;FLAVOR:Marlin
;TIME:3843
;Filament used: 2.43721m
;Layer height: 0.2
;MINX:69.751
;MINY:71.501
;MINZ:0.2
;MAXX:150.249
;MAXY:148.498
;MAXZ:5
;Generated with Cura_SteamEngine 5.4.0
M82 ;absolute extrusion mode
; Ender 3 Custom Start G-code
G92 E0 ; Reset Extruder
G28 ; Home all axes
M104 S175 ; Start heating up the nozzle most of the way
M190 S60 ; Start heating the bed, wait until target temperature reached
M109 S200 ; Finish heating the nozzle
G1 Z2.0 F3000 ; Move Z Axis up little to prevent scratching of Heat Bed
G1 X0.1 Y20 Z0.3 F5000.0 ; Move to start position
G1 X0.1 Y200.0 Z0.3 F1500.0 E15 ; Draw the first line
G1 X0.4 Y200.0 Z0.3 F5000.0 ; Move to side a little
G1 X0.4 Y20 Z0.3 F1500.0 E30 ; Draw the second line
G92 E0 ; Reset Extruder
G1 Z2.0 F3000 ; Move Z Axis up little to prevent scratching of Heat Bed
G1 X5 Y20 Z0.3 F5000.0 ; Move over to prevent blob squish
G92 E0
G92 E0
G1 F1500 E-6.5
;LAYER_COUNT:25
;LAYER:0
M107
G0 F6000 X73.457 Y74.868 Z0.2
;TYPE:SKIRT
G1 F1500 E0
G1 F1200 X73.766 Y74.581 E0.01403
G1 X74.51 Y73.952 E0.04643
G1 X75.281 Y73.41 E0.07778
G1 X76.393 Y72.777 E0.12033
G1 X77.472 Y72.301 E0.15956
G1 X78.396 Y71.991 E0.19197
G1 X79.351 Y71.762 E0.22464
G1 X79.666 Y71.702 E0.2353
G1 X80.56 Y71.571 E0.26536
G1 X81.54 Y71.512 E0.29801
G1 X82.209 Y71.502 E0.32026
G1 X137.694 Y71.501 E2.1657
G1 X138.566 Y71.514 E2.19471
G1 X139.539 Y71.573 E2.22713
G1 X140.432 Y71.706 E2.25716
G1 X141.642 Y72.008 E2.29864
G1 X142.053 Y72.138 E2.31298
G1 X142.97 Y72.471 E2.34542
G1 X143.851 Y72.883 E2.37777
G1 X144.633 Y73.334 E2.4078
G1 X145.5 Y73.947 E2.44311
G1 X146.554 Y74.876 E2.48984
G1 X146.889 Y75.215 E2.50569
G1 X147.542 Y75.937 E2.53807
G1 X148.088 Y76.656 E2.5681
G1 X148.779 Y77.789 E2.61224
G1 X148.932 Y78.08 E2.62317
G1 X149.346 Y78.961 E2.65555
G1 X149.657 Y79.809 E2.68559
G1 X149.981 Y81.067 E2.7288
G1 X150.045 Y81.4 E2.74008
G1 X150.177 Y82.293 E2.7701
G1 X150.238 Y83.281 E2.80303
G1 X150.248 Y83.93 E2.82461
G1 X150.249 Y135.853 E4.55158
G1 X150.236 Y136.735 E4.58092
G1 X150.175 Y137.716 E4.61361
G1 X149.985 Y138.898 E4.65343
G1 X149.909 Y139.24 E4.66508
G1 X149.651 Y140.196 E4.69801
G1 X149.315 Y141.111 E4.73043
G1 X148.903 Y141.988 E4.76266
G1 X148.502 Y142.687 E4.78946
G1 X148.249 Y143.093 E4.80538
G1 X147.696 Y143.894 E4.83775
G1 X147.121 Y144.591 E4.8678
G1 X146.385 Y145.333 E4.90256
G1 X145.641 Y145.961 E4.93495
G1 X144.848 Y146.518 E4.96718
G1 X144.164 Y146.921 E4.99358
G1 X143.752 Y147.142 E5.00913
G1 X142.905 Y147.547 E5.04036
G1 X141.988 Y147.891 E5.07293
G1 X140.694 Y148.229 E5.11742
G1 X140.373 Y148.291 E5.12829
G1 X139.48 Y148.425 E5.15832
G1 X138.462 Y148.488 E5.19225
G1 X137.804 Y148.498 E5.21413
G1 X82.235 Y148.498 E7.06237
G1 X81.49 Y148.485 E7.08715
G1 X80.517 Y148.423 E7.11958
G1 X79.547 Y148.275 E7.15221
G1 X79.247 Y148.214 E7.1624
G1 X78.303 Y147.981 E7.19473
G1 X77.415 Y147.676 E7.22596
G1 X76.529 Y147.282 E7.25821
G1 X75.908 Y146.949 E7.28165
G1 X75.529 Y146.728 E7.29624
G1 X74.712 Y146.199 E7.32862
G1 X73.944 Y145.6 E7.36101
G1 X73.232 Y144.936 E7.39339
G1 X72.608 Y144.245 E7.42436
G1 X72.224 Y143.754 E7.44509
G1 X71.99 Y143.433 E7.4583
G1 X71.45 Y142.625 E7.49063
G1 X70.997 Y141.796 E7.52205
G1 X70.509 Y140.64 E7.56378
G1 X70.381 Y140.276 E7.57661
G1 X70.101 Y139.344 E7.60898
G1 X69.917 Y138.46 E7.63901
G1 X69.795 Y137.434 E7.67338
G1 X69.77 Y136.852 E7.69275
G1 X69.751 Y135.699 E7.73111
G1 X69.752 Y83.951 E9.45225
G1 X69.765 Y83.232 E9.47617
G1 X69.828 Y82.257 E9.50867
G1 X69.982 Y81.257 E9.54232
G1 X70.047 Y80.942 E9.55302
G1 X70.285 Y79.998 E9.5854
G1 X70.58 Y79.144 E9.61545
G1 X71.097 Y78.017 E9.65669
G1 X71.241 Y77.748 E9.66684
G1 X71.737 Y76.91 E9.69923
G1 X72.305 Y76.119 E9.73161
G1 X72.914 Y75.41 E9.7627
G1 X73.457 Y74.868 E9.78822
G0 F6000 X73.729 Y75.161
G1 F1200 X74.025 Y74.886 E9.80166
G1 X74.741 Y74.279 E9.83288
G1 X75.479 Y73.758 E9.86292
G1 X76.591 Y73.125 E9.90548
G1 X77.6 Y72.68 E9.94216
G1 X78.489 Y72.38 E9.97337
G1 X79.426 Y72.155 E10.00542
G1 X79.724 Y72.098 E10.01551
G1 X80.618 Y71.967 E10.04556
G1 X81.546 Y71.912 E10.07648
G1 X82.209 Y71.902 E10.09853
G1 X137.688 Y71.901 E11.94377
G1 X138.542 Y71.913 E11.97218
G1 X139.48 Y71.969 E12.00343
G1 X140.373 Y72.102 E12.03346
G1 X141.522 Y72.39 E12.07286
G1 X141.917 Y72.514 E12.08663
G1 X142.801 Y72.833 E12.11789
G1 X143.651 Y73.23 E12.14909
G1 X144.433 Y73.681 E12.17912
G1 X145.236 Y74.247 E12.21179
G1 X146.27 Y75.158 E12.25763
G1 X146.593 Y75.484 E12.27289
G1 X147.223 Y76.179 E12.30409
G1 X147.769 Y76.898 E12.33412
G1 X148.437 Y77.997 E12.37689
G1 X148.57 Y78.25 E12.3864
G1 X148.97 Y79.099 E12.41761
G1 X149.281 Y79.947 E12.44766
G1 X149.593 Y81.166 E12.48951
G1 X149.649 Y81.458 E12.4994
G1 X149.781 Y82.351 E12.52942
G1 X149.838 Y83.287 E12.56061
G1 X149.848 Y83.93 E12.582
G1 X149.849 Y135.847 E14.30876
G1 X149.837 Y136.711 E14.3375
G1 X149.78 Y137.653 E14.36889
G1 X149.594 Y138.812 E14.40793
G1 X149.523 Y139.136 E14.41897
G1 X149.275 Y140.059 E14.45075
G1 X148.953 Y140.941 E14.48198
G1 X148.556 Y141.789 E14.51312
G1 X148.163 Y142.475 E14.53942
G1 X147.919 Y142.866 E14.55475
G1 X147.387 Y143.639 E14.58596
G1 X146.812 Y144.336 E14.61601
G1 X146.127 Y145.028 E14.6484
G1 X145.411 Y145.634 E14.6796
G1 X144.645 Y146.173 E14.71075
G1 X143.961 Y146.576 E14.73715
G1 X143.579 Y146.781 E14.75157
G1 X142.765 Y147.172 E14.78161
G1 X141.848 Y147.516 E14.81418
G1 X140.618 Y147.836 E14.85646
G1 X140.314 Y147.895 E14.86676
G1 X139.421 Y148.029 E14.89679
G1 X138.456 Y148.088 E14.92895
G1 X137.798 Y148.098 E14.95083
G1 X82.242 Y148.098 E16.79863
G1 X81.515 Y148.086 E16.82282
G1 X80.577 Y148.028 E16.85407
G1 X79.626 Y147.883 E16.88607
G1 X79.343 Y147.826 E16.89567
G1 X78.432 Y147.602 E16.92687
G1 X77.577 Y147.31 E16.95692
G1 X76.718 Y146.929 E16.98818
G1 X76.109 Y146.603 E17.01115
G1 X75.746 Y146.392 E17.02512
G1 X74.957 Y145.883 E17.05635
G1 X74.216 Y145.307 E17.08756
G1 X73.529 Y144.668 E17.11877
G1 X72.923 Y143.998 E17.14882
G1 X72.547 Y143.518 E17.1691
G1 X72.322 Y143.211 E17.18176
G1 X71.801 Y142.432 E17.21293
G1 X71.366 Y141.64 E17.24298
G1 X70.878 Y140.484 E17.28471
G1 X70.764 Y140.161 E17.29611
G1 X70.493 Y139.262 E17.32734
G1 X70.309 Y138.378 E17.35737
G1 X70.195 Y137.417 E17.38956
G1 X70.17 Y136.845 E17.4086
G1 X70.151 Y135.699 E17.44672
G1 X70.152 Y83.958 E19.16763
G1 X70.164 Y83.257 E19.19095
G1 X70.223 Y82.318 E19.22224
G1 X70.374 Y81.337 E19.25526
G1 X70.435 Y81.039 E19.26537
G1 X70.663 Y80.129 E19.29658
G1 X70.958 Y79.275 E19.32663
G1 X71.45 Y78.205 E19.3658
G1 X71.585 Y77.951 E19.37537
G1 X72.062 Y77.143 E19.40657
G1 X72.608 Y76.38 E19.43778
G1 X73.217 Y75.671 E19.46887
G1 X73.729 Y75.161 E19.4929
G0 F6000 X74.001 Y75.454
G1 F1200 X74.284 Y75.191 E19.50575
G1 X74.972 Y74.606 E19.53579
G1 X75.71 Y74.085 E19.56583
G1 X76.788 Y73.473 E19.60706
G1 X77.728 Y73.059 E19.64123
G1 X78.583 Y72.769 E19.67125
G1 X79.501 Y72.548 E19.70266
G1 X79.782 Y72.494 E19.71218
G1 X80.676 Y72.363 E19.74223
G1 X81.552 Y72.312 E19.77141
G1 X82.209 Y72.302 E19.79327
G1 X137.683 Y72.301 E21.63834
G1 X138.519 Y72.312 E21.66615
G1 X139.421 Y72.365 E21.6962
G1 X140.314 Y72.498 E21.72623
G1 X141.403 Y72.772 E21.76358
G1 X141.782 Y72.89 E21.77678
G1 X142.632 Y73.196 E21.80683
G1 X143.451 Y73.577 E21.83687
G1 X144.233 Y74.028 E21.8669
G1 X144.972 Y74.547 E21.89693
G1 X145.986 Y75.44 E21.94187
G1 X146.297 Y75.753 E21.95655
G1 X146.904 Y76.421 E21.98657
G1 X147.45 Y77.14 E22.0166
G1 X148.083 Y78.184 E22.0572
G1 X148.208 Y78.421 E22.06612
G1 X148.594 Y79.237 E22.09614
G1 X148.905 Y80.085 E22.12618
G1 X149.2 Y81.242 E22.16589
G1 X149.253 Y81.516 E22.17518
G1 X149.385 Y82.409 E22.2052
G1 X149.438 Y83.293 E22.23466
G1 X149.448 Y83.93 E22.25584
G1 X149.449 Y135.842 E23.98245
G1 X149.438 Y136.688 E24.01059
G1 X149.385 Y137.59 E24.04064
G1 X149.203 Y138.726 E24.0789
G1 X149.132 Y139.05 E24.08994
G1 X148.899 Y139.923 E24.11999
G1 X148.591 Y140.772 E24.15003
G1 X148.209 Y141.59 E24.18005
G1 X147.824 Y142.263 E24.20584
G1 X147.589 Y142.64 E24.22062
G1 X147.078 Y143.384 E24.25064
G1 X146.503 Y144.081 E24.28069
G1 X145.868 Y144.723 E24.31072
G1 X145.18 Y145.307 E24.34074
G1 X144.442 Y145.828 E24.37079
G1 X143.758 Y146.231 E24.39719
G1 X143.406 Y146.42 E24.41048
G1 X142.592 Y146.811 E24.44051
G1 X141.747 Y147.129 E24.47054
G1 X140.541 Y147.443 E24.51199
G1 X140.255 Y147.499 E24.52168
G1 X139.362 Y147.633 E24.55172
G1 X138.45 Y147.688 E24.58211
G1 X137.792 Y147.698 E24.60399
G1 X82.248 Y147.698 E26.4514
G1 X81.539 Y147.687 E26.47498
G1 X80.637 Y147.633 E26.50503
G1 X79.704 Y147.491 E26.53642
G1 X79.438 Y147.438 E26.54544
G1 X78.561 Y147.223 E26.57548
G1 X77.706 Y146.931 E26.60553
G1 X76.881 Y146.564 E26.63556
G1 X76.31 Y146.257 E26.65712
G1 X75.962 Y146.055 E26.67051
G1 X75.202 Y145.567 E26.70055
G1 X74.488 Y145.014 E26.73058
G1 X73.826 Y144.4 E26.76061
G1 X73.22 Y143.73 E26.79066
G1 X72.869 Y143.281 E26.80962
G1 X72.654 Y142.989 E26.82168
G1 X72.152 Y142.239 E26.85169
G1 X71.717 Y141.447 E26.88175
G1 X71.247 Y140.329 E26.92209
G1 X71.147 Y140.045 E26.9321
G1 X70.885 Y139.18 E26.96216
G1 X70.701 Y138.296 E26.99219
G1 X70.595 Y137.399 E27.02223
G1 X70.57 Y136.838 E27.04091
G1 X70.551 Y135.699 E27.0788
G1 X70.552 Y83.964 E28.79951
G1 X70.563 Y83.281 E28.82223
G1 X70.618 Y82.379 E28.85229
G1 X70.766 Y81.417 E28.88466
G1 X70.823 Y81.136 E28.8942
G1 X71.041 Y80.26 E28.92422
G1 X71.336 Y79.406 E28.95427
G1 X71.804 Y78.392 E28.99142
G1 X71.93 Y78.154 E29.00038
G1 X72.388 Y77.375 E29.03043
G1 X72.912 Y76.64 E29.06045
G1 X73.5 Y75.954 E29.09051
G1 X74.001 Y75.454 E29.11405
G1 F1500 E22.61405
;MESH:nuvu-enclosure-Faceplate.stl
G0 F6000 X83.061 Y84.618
G0 X84.809 Y87.577
;TYPE:WALL-INNER
G1 F1500 E29.11405
G1 F1200 X84.292 Y87.655 E29.13144
G1 X83.858 Y87.61 E29.14595
G1 X83.293 Y87.357 E29.16654
G1 X82.983 Y87.052 E29.181
G1 X82.767 Y86.736 E29.19373
G1 X82.672 Y86.503 E29.2021
G1 X82.598 Y86.089 E29.21609
G1 X82.628 Y85.657 E29.23049
G1 X82.795 Y85.233 E29.24565
G1 X82.913 Y85.045 E29.25303
G1 X83.195 Y84.74 E29.26685
G1 X83.376 Y84.606 E29.27434
G1 X83.785 Y84.41 E29.28942
G1 X84.228 Y84.34 E29.30434
G1 X84.837 Y84.448 E29.32491
G1 X85.249 Y84.674 E29.34054
G1 X85.455 Y84.86 E29.34977
G1 X85.69 Y85.201 E29.36355
G1 X85.86 Y85.602 E29.37803
G1 X85.9 Y86.156 E29.39651
G1 X85.798 Y86.573 E29.41079
G1 X85.608 Y86.947 E29.42474
G1 X85.28 Y87.296 E29.44067
G1 X84.809 Y87.577 E29.45891
G1 F1500 E22.95891
G0 F6000 X84.827 Y87.676
G0 X84.293 Y87.837
G0 X84.224 Y132.16
G0 X83.858 Y135.611
G1 F1500 E29.45891
G1 F1200 X83.304 Y135.362 E29.47911
G1 X83.025 Y135.113 E29.49155
G1 X82.767 Y134.736 E29.50674
G1 X82.672 Y134.503 E29.51511
G1 X82.598 Y134.089 E29.5291
G1 X82.628 Y133.657 E29.5435
G1 X82.795 Y133.233 E29.55866
G1 X82.913 Y133.045 E29.56604
G1 X83.195 Y132.74 E29.57986
G1 X83.376 Y132.606 E29.58735
G1 X83.783 Y132.411 E29.60236
G1 X84.221 Y132.342 E29.61711
G1 X84.83 Y132.448 E29.63767
G1 X85.374 Y132.741 E29.65822
G1 X85.73 Y133.269 E29.6794
G1 X85.855 Y133.594 E29.69098
G1 X85.899 Y134.152 E29.7096
G1 X85.806 Y134.565 E29.72368
G1 X85.613 Y134.941 E29.73773
G1 X85.288 Y135.29 E29.7536
G1 X84.925 Y135.512 E29.76775
G1 X84.716 Y135.591 E29.77518
G1 X84.289 Y135.656 E29.78955
G1 X83.858 Y135.611 E29.80396
G1 F1500 E23.30396
G0 F6000 X83.937 Y135.718
G0 X83.206 Y135.517
G0 X83.206 Y136.699
G0 X81.491 Y136.788
G1 F1500 E29.80396
G1 F1200 X81.762 Y136.899 E29.8137
G1 X138.239 Y136.897 E31.69213
G1 X138.385 Y136.869 E31.69708
G1 X138.528 Y136.781 E31.70266
G1 X138.61 Y136.65 E31.7078
G1 X138.649 Y136.483 E31.7135
G1 X138.649 Y83.512 E33.47533
G1 X138.587 Y83.295 E33.48283
G1 X138.465 Y83.168 E33.48869
G1 X138.293 Y83.102 E33.49482
G1 X81.763 Y83.101 E35.37501
G1 X81.574 Y83.148 E35.38149
G1 X81.427 Y83.279 E35.38804
G1 X81.351 Y83.512 E35.39619
G1 X81.352 Y136.541 E37.15994
G1 X81.491 Y136.788 E37.16937
G1 F1500 E30.66937
G0 F6000 X81.622 Y136.741
G0 X132.201 Y136.698
G0 X131.77 Y131.233
G0 X131.961 Y130.886
G1 F1500 E37.16937
G1 F1200 X131.789 Y131.027 E37.17677
G1 X131.586 Y131.1 E37.18394
G1 X88.458 Y131.099 E38.61839
G1 X88.249 Y131.046 E38.62556
G1 X88.119 Y130.965 E38.63065
G1 X87.961 Y130.765 E38.63913
G1 X87.902 Y130.553 E38.64645
G1 X87.9 Y105.916 E39.46588
G1 X87.999 Y105.669 E39.47473
G1 X88.139 Y105.52 E39.48153
G1 X88.437 Y105.403 E39.49218
G1 X131.563 Y105.403 E40.92655
G1 X131.861 Y105.519 E40.93719
G1 X132.002 Y105.669 E40.94404
G1 X132.101 Y105.91 E40.9527
G1 X132.095 Y130.581 E41.77326
G1 X131.961 Y130.886 E41.78434
G1 F1500 E35.28434
G0 F6000 X132.201 Y130.476
G0 X132.064 Y131.067
G0 X134.18 Y133.03
G0 X134.793 Y135.357
G1 F1500 E41.78434
G1 F1200 X134.483 Y135.052 E41.79881
G1 X134.267 Y134.736 E41.81154
G1 X134.172 Y134.503 E41.81991
G1 X134.097 Y134.083 E41.8341
G1 X134.136 Y133.636 E41.84902
G1 X134.333 Y133.136 E41.8669
G1 X134.771 Y132.657 E41.88848
G1 X135.288 Y132.409 E41.90756
G1 X135.734 Y132.342 E41.92256
G1 X136.339 Y132.45 E41.943
G1 X136.749 Y132.674 E41.95854
G1 X136.954 Y132.86 E41.96774
G1 X137.189 Y133.201 E41.98152
G1 X137.36 Y133.604 E41.99608
G1 X137.398 Y134.153 E42.01438
G1 X137.307 Y134.562 E42.02832
G1 X137.117 Y134.936 E42.04227
G1 X136.788 Y135.29 E42.05834
G1 X136.425 Y135.512 E42.0725
G1 X136.216 Y135.591 E42.07993
G1 X135.789 Y135.656 E42.09429
G1 X135.358 Y135.611 E42.10871
G1 X134.793 Y135.357 E42.12931
G1 F1500 E35.62931
G0 F6000 X134.734 Y135.441
G0 X134.346 Y134.565
G0 X134.258 Y134.069
G0 X134.289 Y133.692
G0 X134.44 Y133.306
G0 X135.234 Y132.235
G0 X135.312 Y87.787
G0 X135.381 Y87.612
G1 F1500 E42.12931
G1 F1200 X134.825 Y87.373 E42.14944
G1 X134.518 Y87.098 E42.16315
G1 X134.193 Y86.621 E42.18234
G1 X134.096 Y86.077 E42.20072
G1 X134.129 Y85.655 E42.2148
G1 X134.295 Y85.233 E42.22988
G1 X134.413 Y85.045 E42.23727
G1 X134.695 Y84.74 E42.25108
G1 X134.876 Y84.606 E42.25857
G1 X135.285 Y84.41 E42.27366
G1 X135.728 Y84.34 E42.28857
G1 X136.337 Y84.448 E42.30915
G1 X136.86 Y84.735 E42.32899
G1 X137.189 Y85.201 E42.34796
G1 X137.36 Y85.604 E42.36252
G1 X137.398 Y86.153 E42.38082
G1 X137.307 Y86.562 E42.39476
G1 X137.118 Y86.936 E42.4087
G1 X136.786 Y87.292 E42.42489
G1 X136.425 Y87.512 E42.43895
G1 X136.202 Y87.593 E42.44684
G1 X135.792 Y87.655 E42.46063
G1 X135.381 Y87.612 E42.47438
G0 F6000 X136.182 Y87.192
;TYPE:WALL-OUTER
G1 F1200 X135.755 Y87.249 E42.4887
G1 X135.462 Y87.216 E42.49851
G1 X135.038 Y87.028 E42.51394
G1 X134.825 Y86.842 E42.52334
G1 X134.572 Y86.471 E42.53828
G1 X134.501 Y86.033 E42.55304
G1 X134.523 Y85.744 E42.56268
G1 X134.68 Y85.346 E42.57691
G1 X135.016 Y84.983 E42.59336
G1 X135.407 Y84.795 E42.60779
G1 X135.723 Y84.75 E42.61841
G1 X136.201 Y84.83 E42.63452
G1 X136.593 Y85.045 E42.64939
G1 X136.86 Y85.428 E42.66492
G1 X136.966 Y85.7 E42.67463
G1 X136.995 Y86.104 E42.6881
G1 X136.932 Y86.406 E42.69837
G1 X136.786 Y86.705 E42.70943
G1 X136.534 Y86.976 E42.72174
G1 X136.182 Y87.192 E42.73548
G1 F1500 E36.23548
G0 F6000 X136.761 Y87.424
G0 X135.794 Y87.837
G0 X135.739 Y132.159
G0 X136.18 Y135.193
G1 F1500 E42.73548
G1 F1200 X135.755 Y135.25 E42.74974
G1 X135.466 Y135.22 E42.7594
G1 X135.025 Y135.023 E42.77547
G1 X134.813 Y134.826 E42.78509
G1 X134.573 Y134.475 E42.79924
G1 X134.501 Y134.033 E42.81413
G1 X134.525 Y133.748 E42.82364
G1 X134.679 Y133.348 E42.8379
G1 X135.019 Y132.985 E42.85444
G1 X135.404 Y132.797 E42.86869
G1 X135.705 Y132.75 E42.87882
G1 X136.204 Y132.832 E42.89564
G1 X136.599 Y133.048 E42.91062
G1 X136.883 Y133.473 E42.92762
G1 X136.968 Y133.728 E42.93656
G1 X136.995 Y134.104 E42.9491
G1 X136.932 Y134.406 E42.95936
G1 X136.786 Y134.705 E42.97042
G1 X136.534 Y134.976 E42.98273
G1 X136.18 Y135.193 E42.99654
G1 F1500 E36.49654
G0 F6000 X136.224 Y135.487
G0 X136.906 Y135.429
G0 X136.906 Y136.698
G0 X138.521 Y137.25
G1 F1500 E42.99654
G1 F1200 X138.837 Y137.041 E43.00914
G1 X138.986 Y136.805 E43.01843
G1 X139.049 Y136.527 E43.02791
G1 X139.049 Y83.472 E44.79252
G1 X139 Y83.227 E44.80083
G1 X138.917 Y83.063 E44.80695
G1 X138.67 Y82.804 E44.81885
G1 X138.357 Y82.702 E44.8298
G1 X81.724 Y82.701 E46.71342
G1 X81.403 Y82.765 E46.72431
G1 X81.107 Y83.029 E46.7375
