;FLAVOR:Marlin
;TIME:763
;Filament used: 0.271816m
;Layer height: 0.2
;MINX:95.5
;MINY:88.4
;MINZ:0.2
;MAXX:124.5
;MAXY:131.6
;MAXZ:9
;Generated with Cura_SteamEngine 5.4.0
M82 ;absolute extrusion mode
; Ender 3 Custom Start G-code
G92 E0 ; Reset Extruder
G28 ; Home all axes
M104 S175 ; Start heating up the nozzle most of the way
M190 S60 ; Start heating the bed, wait until target temperature reached
M109 S200 ; Finish heating the nozzle
G1 Z2.0 F3000 ; Move Z Axis up little to prevent scratching of Heat Bed
G1 X0.1 Y20 Z0.3 F5000.0 ; Move to start position
G1 X0.1 Y200.0 Z0.3 F1500.0 E15 ; Draw the first line
G1 X0.4 Y200.0 Z0.3 F5000.0 ; Move to side a little
G1 X0.4 Y20 Z0.3 F1500.0 E30 ; Draw the second line
G92 E0 ; Reset Extruder
G1 Z2.0 F3000 ; Move Z Axis up little to prevent scratching of Heat Bed
G1 X5 Y20 Z0.3 F5000.0 ; Move over to prevent blob squish
G92 E0
G92 E0
G1 F1500 E-6.5
;LAYER_COUNT:45
;LAYER:0
M107
G0 F6000 X99.338 Y92.046 Z0.2
;TYPE:SKIRT
G1 F1500 E0
G1 F1200 X100.047 Y91.328 E0.03356
G1 X100.792 Y90.699 E0.06599
G1 X101.588 Y90.14 E0.09834
G1 X102.431 Y89.653 E0.13072
G1 X103.314 Y89.241 E0.16313
G1 X104.229 Y88.91 E0.19549
G1 X105.137 Y88.668 E0.22675
G1 X106.135 Y88.496 E0.26043
G1 X107.205 Y88.413 E0.29613
G1 X107.812 Y88.4 E0.31632
G1 X111.804 Y88.4 E0.44909
G1 X112.684 Y88.413 E0.47837
G1 X113.656 Y88.472 E0.51076
G1 X114.619 Y88.618 E0.54315
G1 X115.566 Y88.849 E0.57557
G1 X116.454 Y89.149 E0.60675
G1 X117.346 Y89.539 E0.63913
G1 X118.229 Y90.026 E0.67267
G1 X118.98 Y90.528 E0.70271
G1 X119.795 Y91.186 E0.73755
G1 X120.493 Y91.864 E0.76991
G1 X121.129 Y92.601 E0.80229
G1 X121.699 Y93.391 E0.83469
G1 X122.161 Y94.167 E0.86473
G1 X122.615 Y95.109 E0.89951
G1 X122.944 Y95.987 E0.9307
G1 X123.206 Y96.928 E0.96318
G1 X123.42 Y98.156 E1.00464
G1 X123.625 Y100.021 E1.06705
G1 X123.956 Y102.565 E1.15237
G1 X124.354 Y105.08 E1.23706
G1 X124.485 Y106.476 E1.2837
G1 X124.5 Y107.133 E1.30556
G1 X124.499 Y112.743 E1.49215
G1 X124.486 Y113.508 E1.51759
G1 X124.428 Y114.465 E1.54948
G1 X124.356 Y115.006 E1.56764
G1 X124.167 Y116.209 E1.60814
G1 X124.056 Y116.856 E1.62997
G1 X123.706 Y119.325 E1.71291
G1 X123.415 Y121.871 E1.79814
G1 X123.26 Y122.835 E1.83062
G1 X123.019 Y123.776 E1.86293
G1 X122.71 Y124.663 E1.89417
G1 X122.292 Y125.583 E1.92778
G1 X121.813 Y126.429 E1.96011
G1 X121.261 Y127.232 E1.99252
G1 X120.662 Y127.955 E2.02375
G1 X119.953 Y128.673 E2.05731
G1 X119.208 Y129.302 E2.08974
G1 X118.413 Y129.861 E2.12206
G1 X117.633 Y130.316 E2.1521
G1 X116.685 Y130.759 E2.1869
G1 X115.77 Y131.089 E2.21925
G1 X114.828 Y131.339 E2.25167
G1 X113.864 Y131.504 E2.2842
G1 X112.794 Y131.587 E2.31989
G1 X112.17 Y131.6 E2.34065
G1 X108.049 Y131.599 E2.47772
G1 X107.316 Y131.587 E2.5021
G1 X106.344 Y131.528 E2.53449
G1 X105.381 Y131.382 E2.56688
G1 X104.434 Y131.151 E2.5993
G1 X103.546 Y130.851 E2.63048
G1 X102.654 Y130.461 E2.66286
G1 X101.771 Y129.974 E2.6964
G1 X101.02 Y129.472 E2.72644
G1 X100.205 Y128.814 E2.76128
G1 X99.507 Y128.136 E2.79365
G1 X98.871 Y127.399 E2.82603
G1 X98.301 Y126.609 E2.85843
G1 X97.839 Y125.833 E2.88846
G1 X97.385 Y124.891 E2.92324
G1 X97.056 Y124.013 E2.95443
G1 X96.794 Y123.071 E2.98695
G1 X96.575 Y121.8 E3.02985
G1 X96.429 Y120.477 E3.07412
G1 X96.105 Y117.931 E3.15948
G1 X95.638 Y114.956 E3.25964
G1 X95.513 Y113.597 E3.30503
G1 X95.5 Y112.973 E3.32579
G1 X95.501 Y107.339 E3.51318
G1 X95.514 Y106.594 E3.53796
G1 X95.57 Y105.664 E3.56895
G1 X95.653 Y105.037 E3.58998
G1 X95.89 Y103.58 E3.63908
G1 X96.249 Y101.078 E3.72315
G1 X96.585 Y98.129 E3.82187
G1 X96.741 Y97.169 E3.85422
G1 X96.981 Y96.224 E3.88665
G1 X97.291 Y95.339 E3.91784
G1 X97.708 Y94.42 E3.9514
G1 X98.187 Y93.572 E3.98379
G1 X98.739 Y92.769 E4.0162
G1 X99.338 Y92.046 E4.04743
G0 F6000 X99.623 Y92.327
G1 F1200 X100.306 Y91.633 E4.07982
G1 X101.022 Y91.026 E4.11104
G1 X101.789 Y90.486 E4.14224
G1 X102.601 Y90.015 E4.17346
G1 X103.451 Y89.617 E4.20468
G1 X104.332 Y89.297 E4.23585
G1 X105.24 Y89.055 E4.26711
G1 X106.166 Y88.895 E4.29836
G1 X107.214 Y88.813 E4.33332
G1 X107.821 Y88.8 E4.35352
G1 X111.798 Y88.8 E4.48579
G1 X112.66 Y88.812 E4.51447
G1 X113.597 Y88.868 E4.54569
G1 X114.525 Y89.007 E4.5769
G1 X115.438 Y89.228 E4.60814
G1 X116.294 Y89.516 E4.63818
G1 X117.186 Y89.906 E4.67056
G1 X118.007 Y90.359 E4.70175
G1 X118.758 Y90.861 E4.73179
G1 X119.517 Y91.473 E4.76422
G1 X120.191 Y92.126 E4.79543
G1 X120.805 Y92.835 E4.82663
G1 X121.355 Y93.596 E4.85786
G1 X121.817 Y94.372 E4.88789
G1 X122.24 Y95.249 E4.92028
G1 X122.569 Y96.127 E4.95146
G1 X122.812 Y96.997 E4.98151
G1 X123.022 Y98.2 E5.02213
G1 X123.228 Y100.073 E5.0848
G1 X123.559 Y102.617 E5.17012
G1 X123.959 Y105.143 E5.25519
G1 X124.085 Y106.485 E5.30002
G1 X124.1 Y107.133 E5.32158
G1 X124.099 Y112.737 E5.50797
G1 X124.087 Y113.484 E5.53281
G1 X124.031 Y114.413 E5.56377
G1 X123.961 Y114.944 E5.58158
G1 X123.773 Y116.141 E5.62188
G1 X123.662 Y116.788 E5.64372
G1 X123.31 Y119.269 E5.72706
G1 X123.02 Y121.808 E5.81206
G1 X122.872 Y122.736 E5.84331
G1 X122.641 Y123.644 E5.87448
G1 X122.332 Y124.531 E5.90572
G1 X121.944 Y125.386 E5.93695
G1 X121.483 Y126.203 E5.96815
G1 X120.952 Y126.977 E5.99937
G1 X120.377 Y127.674 E6.02942
G1 X119.694 Y128.368 E6.0618
G1 X118.978 Y128.975 E6.09302
G1 X118.211 Y129.515 E6.12422
G1 X117.431 Y129.97 E6.15426
G1 X116.549 Y130.383 E6.18665
G1 X115.667 Y130.703 E6.21786
G1 X114.76 Y130.945 E6.24908
G1 X113.833 Y131.105 E6.28037
G1 X112.786 Y131.187 E6.3153
G1 X112.17 Y131.2 E6.33579
G1 X108.055 Y131.199 E6.47265
G1 X107.34 Y131.188 E6.49644
G1 X106.403 Y131.132 E6.52766
G1 X105.475 Y130.993 E6.55887
G1 X104.562 Y130.772 E6.59011
G1 X103.706 Y130.484 E6.62015
G1 X102.814 Y130.094 E6.65253
G1 X101.993 Y129.641 E6.68372
G1 X101.242 Y129.139 E6.71376
G1 X100.483 Y128.527 E6.74619
G1 X99.809 Y127.874 E6.7774
G1 X99.195 Y127.165 E6.8086
G1 X98.645 Y126.404 E6.83983
G1 X98.183 Y125.628 E6.86987
G1 X97.76 Y124.751 E6.90225
G1 X97.431 Y123.873 E6.93344
G1 X97.188 Y123.003 E6.96348
G1 X96.973 Y121.756 E7.00557
G1 X96.827 Y120.433 E7.04984
G1 X96.502 Y117.88 E7.13544
G1 X96.036 Y114.919 E7.23513
G1 X95.913 Y113.589 E7.27956
G1 X95.9 Y112.973 E7.30005
G1 X95.901 Y107.346 E7.4872
G1 X95.913 Y106.618 E7.51142
G1 X95.967 Y105.716 E7.54148
G1 X96.048 Y105.101 E7.56211
G1 X96.285 Y103.644 E7.6112
G1 X96.645 Y101.135 E7.69551
G1 X96.98 Y98.193 E7.79399
G1 X97.129 Y97.267 E7.82519
G1 X97.359 Y96.356 E7.85644
G1 X97.669 Y95.471 E7.88763
G1 X98.056 Y94.616 E7.91884
G1 X98.517 Y93.798 E7.95007
G1 X99.048 Y93.024 E7.98129
G1 X99.623 Y92.327 E8.01134
G0 F6000 X99.932 Y92.582
G1 F1200 X100.565 Y91.938 E8.04138
G1 X101.253 Y91.353 E8.07141
G1 X101.99 Y90.832 E8.10143
G1 X102.771 Y90.377 E8.1315
G1 X103.588 Y89.993 E8.16152
G1 X104.436 Y89.683 E8.19155
G1 X105.309 Y89.449 E8.22161
G1 X106.198 Y89.294 E8.25163
G1 X107.223 Y89.213 E8.28583
G1 X107.83 Y89.2 E8.30602
G1 X111.793 Y89.2 E8.43783
G1 X112.637 Y89.211 E8.4659
G1 X113.539 Y89.264 E8.49596
G1 X114.432 Y89.396 E8.52598
G1 X115.31 Y89.607 E8.55601
G1 X116.166 Y89.895 E8.58605
G1 X116.993 Y90.257 E8.61608
G1 X117.785 Y90.692 E8.64613
G1 X118.536 Y91.194 E8.67618
G1 X119.239 Y91.761 E8.70622
G1 X119.889 Y92.388 E8.73625
G1 X120.481 Y93.07 E8.76629
G1 X121.011 Y93.801 E8.79632
G1 X121.473 Y94.577 E8.82636
G1 X121.866 Y95.39 E8.85639
G1 X122.184 Y96.235 E8.88642
G1 X122.427 Y97.105 E8.91647
G1 X122.624 Y98.244 E8.95491
G1 X122.831 Y100.125 E9.01785
G1 X123.162 Y102.669 E9.10318
G1 X123.564 Y105.206 E9.18861
G1 X123.685 Y106.494 E9.23164
G1 X123.7 Y107.133 E9.2529
G1 X123.699 Y112.731 E9.43909
G1 X123.688 Y113.46 E9.46334
G1 X123.634 Y114.361 E9.49336
G1 X123.566 Y114.882 E9.51084
G1 X123.379 Y116.073 E9.55093
G1 X123.268 Y116.72 E9.57277
G1 X122.914 Y119.213 E9.65652
G1 X122.625 Y121.746 E9.74131
G1 X122.484 Y122.638 E9.77135
G1 X122.263 Y123.513 E9.80136
G1 X121.967 Y124.366 E9.8314
G1 X121.595 Y125.19 E9.86147
G1 X121.153 Y125.977 E9.89149
G1 X120.643 Y126.722 E9.92152
G1 X120.068 Y127.419 E9.95157
G1 X119.435 Y128.063 E9.9816
G1 X118.747 Y128.648 E10.01164
G1 X118.009 Y129.169 E10.04169
G1 X117.229 Y129.624 E10.07172
G1 X116.412 Y130.007 E10.10173
G1 X115.563 Y130.317 E10.13179
G1 X114.691 Y130.551 E10.16182
G1 X113.801 Y130.706 E10.19187
G1 X112.777 Y130.787 E10.22603
G1 X112.17 Y130.8 E10.24623
G1 X108.061 Y130.799 E10.38289
G1 X107.363 Y130.789 E10.40611
G1 X106.461 Y130.736 E10.43616
G1 X105.568 Y130.604 E10.46619
G1 X104.69 Y130.393 E10.49622
G1 X103.834 Y130.105 E10.52626
G1 X103.007 Y129.743 E10.55629
G1 X102.215 Y129.308 E10.58634
G1 X101.464 Y128.806 E10.61638
G1 X100.761 Y128.239 E10.64642
G1 X100.111 Y127.612 E10.67646
G1 X99.519 Y126.93 E10.7065
G1 X98.989 Y126.199 E10.73653
G1 X98.527 Y125.423 E10.76657
G1 X98.134 Y124.61 E10.7966
G1 X97.816 Y123.765 E10.82663
G1 X97.573 Y122.895 E10.85667
G1 X97.371 Y121.712 E10.89659
G1 X97.225 Y120.389 E10.94086
G1 X96.899 Y117.829 E11.02669
G1 X96.434 Y114.882 E11.12592
G1 X96.313 Y113.58 E11.16942
G1 X96.3 Y112.973 E11.18961
G1 X96.301 Y107.352 E11.37656
G1 X96.312 Y106.642 E11.40018
G1 X96.366 Y105.74 E11.43024
G1 X96.443 Y105.165 E11.44953
G1 X96.68 Y103.708 E11.49863
G1 X97.041 Y101.192 E11.58317
G1 X97.375 Y98.256 E11.68145
G1 X97.517 Y97.364 E11.71149
G1 X97.737 Y96.488 E11.74153
G1 X98.034 Y95.635 E11.77157
G1 X98.405 Y94.812 E11.8016
G1 X98.847 Y94.024 E11.83165
G1 X99.357 Y93.279 E11.86168
G1 X99.932 Y92.582 E11.89173
G1 F1500 E5.39173
G0 F6000 X106.7 Y107.003
G1 F1500 E11.89173
G1 F1200 X113.3 Y107.003 E12.11125
G1 X113.3 Y113.103 E12.31414
G1 X106.7 Y113.103 E12.53365
G1 X106.7 Y107.003 E12.73654
G0 F6000 X107.1 Y107.403
G1 F1200 X112.9 Y107.403 E12.92945
G1 X112.9 Y112.703 E13.10573
G1 X107.1 Y112.703 E13.29864
G1 X107.1 Y107.403 E13.47491
G0 F6000 X107.5 Y107.803
G1 F1200 X112.5 Y107.803 E13.64121
G1 X112.5 Y112.303 E13.79089
G1 X107.5 Y112.303 E13.95719
G1 X107.5 Y107.803 E14.10686
G0 F6000 X107.9 Y108.203
G1 F1200 X112.1 Y108.203 E14.24655
G1 X112.1 Y111.903 E14.36961
G1 X107.9 Y111.903 E14.5093
G1 X107.9 Y108.203 E14.63237
G0 F6000 X108.3 Y108.603
G1 F1200 X111.7 Y108.603 E14.74545
G1 X111.7 Y111.503 E14.84191
G1 X108.3 Y111.503 E14.95499
G1 X108.3 Y108.603 E15.05144
G0 F6000 X108.7 Y109.003
G1 F1200 X111.3 Y109.003 E15.13792
G1 X111.3 Y111.103 E15.20777
G1 X108.7 Y111.103 E15.29424
G1 X108.7 Y109.003 E15.36409
G0 F6000 X109.1 Y109.403
G1 F1200 X110.9 Y109.403 E15.42396
G1 X110.9 Y110.703 E15.4672
G1 X109.1 Y110.703 E15.52706
G1 X109.1 Y109.403 E15.5703
G0 F6000 X109.5 Y109.803
G1 F1200 X110.5 Y109.803 E15.60356
G1 X110.5 Y110.303 E15.62019
G1 X109.5 Y110.303 E15.65345
G1 X109.5 Y109.803 E15.67008
G1 F1500 E9.17008
;MESH:nuvu-enclosure-Filler Panel.stl
G0 F6000 X109.5 Y106.668
G0 X109.5 Y105.583
G0 X108.5 Y105.157
G0 X108.867 Y105.348
;TYPE:WALL-INNER
G1 F1500 E15.67008
G1 F944.9 X108.656 Y105.045 E15.68568
G1 F981.6 X108.553 Y104.671 E15.70145
G1 F1086 X108.521 Y104.269 E15.71627
G1 F1156.6 X108.549 Y103.895 E15.72922
G1 F1165 X108.72 Y103.481 E15.74456
G1 F1188.1 X108.936 Y103.168 E15.75734
G1 F1200 X109.239 Y102.898 E15.77083
G1 X109.601 Y102.713 E15.78436
G1 X109.984 Y102.619 E15.79747
G1 X110.391 Y102.626 E15.81101
G1 X110.695 Y102.698 E15.8214
G1 X111.107 Y102.891 E15.83653
G1 X111.411 Y103.16 E15.85004
G1 X111.6 Y103.431 E15.86102
G1 F1124.1 X111.849 Y103.908 E15.88013
G1 X111.9 Y103.519 E15.89406
G1 F1200 X111.9 Y100 E16.0111
G1 X108.101 Y100.001 E16.13746
G1 X108.101 Y103.453 E16.25227
G1 F1153.8 X108.116 Y103.912 E16.26816
G1 F1134.8 X108.107 Y104.269 E16.28072
G1 F1132.1 X108.117 Y104.656 E16.29436
G1 F1019.1 X108.154 Y105.095 E16.31162
G1 F944.9 X108.154 Y105.349 E16.32235
G1 X108.867 Y105.348 E16.35247
G0 F6000 X108.5 Y105.157
G0 X108.729 Y103.905
G0 X108.856 Y103.569
G0 X109.06 Y103.273
G0 X109.331 Y103.034
G0 X109.648 Y102.867
G0 X109.998 Y102.781
G0 X110.357 Y102.781
G0 X110.706 Y102.867
G0 X111.021 Y103.032
G0 X111.293 Y103.273
G0 X111.499 Y103.568
G0 X111.626 Y103.906
G0 X111.67 Y104.262
G0 X111.365 Y105.414
G1 F1273.2 X111.912 Y105.415 E16.36961
G1 F1259.8 X111.908 Y105.002 E16.3827
G1 F1159.4 X111.846 Y104.644 E16.3952
G1 F1170.7 X111.595 Y105.08 E16.41236
G1 F1273.2 X111.365 Y105.414 E16.42507
G0 F6000 X111.844 Y104.631
G1 F973.6 X111.863 Y104.262 E16.44021
G1 F977.6 X111.846 Y103.934 E16.45362
G1 F1500 E9.95362
G0 F6000 X111.499 Y104.955
G0 X111.294 Y105.252
G0 X110.824 Y105.58
G0 X110.638 Y105.419
;TYPE:WALL-OUTER
G1 F1500 E16.45362
G1 F1290.3 X110.334 Y105.479 E16.46321
G1 F1359.8 X110.008 Y105.477 E16.47278
G1 F1286.9 X109.717 Y105.419 E16.48198
G1 F1212.1 X109.444 Y105.275 E16.49214
G1 F1200 X109.26 Y105.113 E16.5003
G1 X109.083 Y104.864 E16.51046
G1 X108.96 Y104.547 E16.52177
G1 X108.928 Y104.269 E16.53107
G1 X108.96 Y103.987 E16.54051
G1 X109.061 Y103.702 E16.55057
G1 X109.227 Y103.452 E16.56055
G1 X109.447 Y103.249 E16.57051
G1 X109.759 Y103.086 E16.58222
G1 X110.016 Y103.022 E16.59103
G1 X110.353 Y103.025 E16.60223
G1 X110.643 Y103.103 E16.61222
G1 X110.863 Y103.218 E16.62048
G1 X111.096 Y103.417 E16.63067
G1 X111.294 Y103.702 E16.64221
G1 X111.395 Y103.988 E16.6523
G1 X111.426 Y104.262 E16.66147
G1 X111.393 Y104.553 E16.67121
G1 X111.274 Y104.861 E16.6822
G1 X111.13 Y105.072 E16.69069
G1 X110.908 Y105.277 E16.70074
G1 F1212.1 X110.638 Y105.419 E16.71079
G1 F1500 E10.21079
G0 F6000 X110.824 Y105.58
G0 X111.294 Y105.252
G0 X111.499 Y104.955
G0 X111.626 Y104.619
G0 X111.67 Y104.262
G0 X111.626 Y103.906
G0 X111.499 Y103.568
G0 X111.293 Y103.273
G0 X111.021 Y103.032
G0 X110.706 Y102.867
G0 X110.357 Y102.781
G0 X109.998 Y102.781
G0 X109.648 Y102.867
G0 X109.331 Y103.034
G0 X109.06 Y103.273
G0 X107.97 Y105.533
G0 X107.7 Y105.803
G1 F1500 E16.71079
G1 F1212.1 X109.623 Y105.807 E16.77411
G1 F1293.8 X110.051 Y105.829 E16.78733
G1 F1375.4 X110.304 Y105.829 E16.79467
G1 F1293.8 X110.732 Y105.807 E16.80789
G1 F1212.1 X112.3 Y105.803 E16.85952
G1 F1200 X112.3 Y99.6 E17.06583
G1 X107.701 Y99.601 E17.2188
G1 X107.7 Y105.803 E17.42508
G0 F6000 X107.97 Y105.533
G0 X108.675 Y103.368
G0 X108.462 Y103.221
;TYPE:SKIN
G1 F1200 X108.461 Y100.361 E17.5202
G1 X111.54 Y100.36 E17.62261
G1 X111.54 Y102.794 E17.70356
G1 X111.304 Y102.584 E17.71407
G1 X110.813 Y102.359 E17.73203
G1 X110.446 Y102.268 E17.74461
G1 X109.935 Y102.261 E17.76161
G1 X109.493 Y102.368 E17.77673
G1 X109.009 Y102.618 E17.79485
G1 X108.652 Y102.943 E17.81091
G1 X108.462 Y103.221 E17.82211
G0 F6000 X108.777 Y102.554
G1 F1200 X108.66 Y102.437 E17.82761
G0 F6000 X109.117 Y102.329
G1 F1200 X108.66 Y101.872 E17.84911
G0 F6000 X108.66 Y101.306
G1 F1200 X109.511 Y102.157 E17.88914
G0 F6000 X109.984 Y102.065
G1 F1200 X108.66 Y100.74 E17.95144
G0 F6000 X109.046 Y100.561
G1 F1200 X110.58 Y102.094 E18.02357
G0 F6000 X111.338 Y102.287
G1 F1200 X109.612 Y100.561 E18.10475
G0 F6000 X110.177 Y100.56
G1 F1200 X111.338 Y101.722 E18.15939
G0 F6000 X111.338 Y101.156
G1 F1200 X110.742 Y100.56 E18.18742
G1 F1500 E11.68742
G0 F6000 X108.35 Y104.782
G0 X109.143 Y105.356
G0 X109.609 Y105.599
G0 X109.609 Y106.668
G0 X111.025 Y113.438
G0 X110.34 Y114.369
;TYPE:WALL-OUTER
G1 F1500 E18.18742
G1 F907.4 X109.978 Y114.366 E18.20334
G0 F6000 X109.197 Y114.538
G0 X108.828 Y114.975
G0 X108.701 Y115.313
G0 X108.657 Y115.674
G0 X108.701 Y116.027
G0 X108.831 Y116.366
G0 X109.033 Y116.659
G0 X109.302 Y116.897
G0 X109.62 Y117.065
G0 X109.97 Y117.151
G0 X110.329 Y117.151
G0 X110.679 Y117.065
G0 X110.996 Y116.897
G0 X111.266 Y116.66
G0 X111.837 Y115.313
;TYPE:WALL-INNER
G1 F1215.2 X111.926 Y114.92 E18.21658
G1 F1375.4 X111.926 Y114.677 E18.22363
G1 X111.429 Y114.677 E18.23805
G1 F1215.2 X111.837 Y115.313 E18.26287
G0 F6000 X111.832 Y115.334
G1 F926.6 X111.85 Y115.669 E18.27732
G1 F923.1 X111.83 Y116.038 E18.2933
G0 F6000 X111.732 Y116.574
G0 X111.728 Y119.828
G0 X111.9 Y120
G1 F1194 X111.898 Y116.418 E18.41303
G1 F1098.4 X111.832 Y116.051 E18.42658
G1 F1103.4 X111.575 Y116.496 E18.44517
G1 F1200 X111.39 Y116.766 E18.45606
G1 X111.085 Y117.035 E18.46958
G1 X110.737 Y117.216 E18.48263
G1 X110.36 Y117.307 E18.49553
G1 X109.947 Y117.313 E18.50927
G1 X109.56 Y117.214 E18.52255
