;FLAVOR:Marlin
;TIME:10361
;Filament used: 6.37902m
;Layer height: 0.2
;MINX:69.75
;MINY:71.5
;MINZ:0.2
;MAXX:150.248
;MAXY:148.499
;MAXZ:22
;Generated with Cura_SteamEngine 5.4.0
M82 ;absolute extrusion mode
; Ender 3 Custom Start G-code
G92 E0 ; Reset Extruder
G28 ; Home all axes
M104 S175 ; Start heating up the nozzle most of the way
M190 S60 ; Start heating the bed, wait until target temperature reached
M109 S200 ; Finish heating the nozzle
G1 Z2.0 F3000 ; Move Z Axis up little to prevent scratching of Heat Bed
G1 X0.1 Y20 Z0.3 F5000.0 ; Move to start position
G1 X0.1 Y200.0 Z0.3 F1500.0 E15 ; Draw the first line
G1 X0.4 Y200.0 Z0.3 F5000.0 ; Move to side a little
G1 X0.4 Y20 Z0.3 F1500.0 E30 ; Draw the second line
G92 E0 ; Reset Extruder
G1 Z2.0 F3000 ; Move Z Axis up little to prevent scratching of Heat Bed
G1 X5 Y20 Z0.3 F5000.0 ; Move over to prevent blob squish
G92 E0
G92 E0
G1 F1500 E-6.5
;LAYER_COUNT:110
;LAYER:0
M107
G0 F6000 X73.465 Y74.85 Z0.2
;TYPE:SKIRT
G1 F1500 E0
G1 F1200 X73.686 Y74.643 E0.01007
G1 X74.371 Y74.055 E0.0401
G1 X75.193 Y73.468 E0.07369
G1 X76.014 Y72.982 E0.10542
G1 X76.273 Y72.845 E0.11517
G1 X77.152 Y72.428 E0.14753
G1 X77.998 Y72.112 E0.17757
G1 X79.293 Y71.775 E0.22207
G1 X79.62 Y71.71 E0.23316
G1 X80.513 Y71.576 E0.26319
G1 X81.538 Y71.512 E0.29735
G1 X82.209 Y71.502 E0.31967
G1 X137.601 Y71.5 E2.16202
G1 X138.513 Y71.514 E2.19235
G1 X139.488 Y71.576 E2.22485
G1 X140.527 Y71.737 E2.25982
G1 X140.834 Y71.801 E2.27025
G1 X141.776 Y72.042 E2.30259
G1 X142.662 Y72.352 E2.33381
G1 X143.573 Y72.765 E2.36708
G1 X144.173 Y73.095 E2.38985
G1 X144.503 Y73.29 E2.4026
G1 X145.26 Y73.784 E2.43267
G1 X146.085 Y74.434 E2.4676
G1 X146.9 Y75.215 E2.50514
G1 X147.107 Y75.436 E2.51521
G1 X147.695 Y76.121 E2.54524
G1 X148.282 Y76.943 E2.57884
G1 X148.768 Y77.764 E2.61057
G1 X148.905 Y78.023 E2.62031
G1 X149.322 Y78.902 E2.65267
G1 X149.638 Y79.748 E2.68271
G1 X149.966 Y80.999 E2.72572
G1 X150.035 Y81.345 E2.73746
G1 X150.175 Y82.273 E2.76867
G1 X150.238 Y83.277 E2.80213
G1 X150.248 Y83.904 E2.82299
G1 X150.248 Y136.026 E4.55657
G1 X150.234 Y136.78 E4.58166
G1 X150.171 Y137.755 E4.61415
G1 X150.015 Y138.759 E4.64795
G1 X149.954 Y139.053 E4.65793
G1 X149.715 Y139.997 E4.69032
G1 X149.393 Y140.916 E4.72271
G1 X149.011 Y141.764 E4.75364
G1 X148.715 Y142.316 E4.77448
G1 X148.528 Y142.639 E4.78689
G1 X147.992 Y143.472 E4.81984
G1 X147.416 Y144.219 E4.85121
G1 X146.535 Y145.15 E4.89384
G1 X146.314 Y145.357 E4.90391
G1 X145.629 Y145.945 E4.93394
G1 X144.807 Y146.532 E4.96753
G1 X143.986 Y147.018 E4.99927
G1 X143.727 Y147.155 E5.00901
G1 X142.848 Y147.572 E5.04137
G1 X142.002 Y147.888 E5.07141
G1 X140.707 Y148.225 E5.11591
G1 X140.38 Y148.29 E5.127
G1 X139.487 Y148.424 E5.15704
G1 X138.462 Y148.488 E5.19119
G1 X137.791 Y148.498 E5.21351
G1 X82.24 Y148.499 E7.06115
G1 X81.491 Y148.486 E7.08606
G1 X80.518 Y148.424 E7.11849
G1 X79.517 Y148.271 E7.15217
G1 X79.206 Y148.207 E7.16273
G1 X78.26 Y147.969 E7.19518
G1 X77.342 Y147.648 E7.22752
G1 X76.461 Y147.251 E7.25966
G1 X75.827 Y146.905 E7.28368
G1 X75.497 Y146.71 E7.29643
G1 X74.74 Y146.216 E7.3265
G1 X73.915 Y145.566 E7.36143
G1 X73.101 Y144.786 E7.39893
G1 X72.893 Y144.564 E7.40905
G1 X72.305 Y143.879 E7.43907
G1 X71.698 Y143.027 E7.47387
G1 X71.194 Y142.165 E7.50708
G1 X71.065 Y141.918 E7.51635
G1 X70.646 Y141.018 E7.54936
G1 X70.313 Y140.095 E7.582
G1 X70.032 Y138.995 E7.61976
G1 X69.96 Y138.63 E7.63214
G1 X69.826 Y137.737 E7.66217
G1 X69.762 Y136.708 E7.69646
G1 X69.752 Y136.022 E7.71928
G1 X69.75 Y84.115 E9.44571
G1 X69.766 Y83.212 E9.47575
G1 X69.829 Y82.236 E9.50828
G1 X69.985 Y81.235 E9.54198
G1 X70.048 Y80.932 E9.55227
G1 X70.288 Y79.988 E9.58467
G1 X70.61 Y79.069 E9.61705
G1 X70.995 Y78.217 E9.64815
G1 X71.345 Y77.577 E9.67241
G1 X71.54 Y77.247 E9.68516
G1 X72.034 Y76.49 E9.71523
G1 X72.684 Y75.665 E9.75016
G1 X73.465 Y74.85 E9.7877
G0 F6000 X73.739 Y75.142
G1 F1200 X73.947 Y74.947 E9.79719
G1 X74.632 Y74.359 E9.82721
G1 X75.425 Y73.794 E9.8596
G1 X76.202 Y73.335 E9.88961
G1 X76.445 Y73.206 E9.89876
G1 X77.292 Y72.803 E9.92996
G1 X78.138 Y72.487 E9.96
G1 X79.371 Y72.167 E10.00236
G1 X79.679 Y72.106 E10.01281
G1 X80.572 Y71.972 E10.04284
G1 X81.544 Y71.912 E10.07523
G1 X82.209 Y71.902 E10.09735
G1 X137.595 Y71.9 E11.9395
G1 X138.488 Y71.913 E11.9692
G1 X139.427 Y71.971 E12.00049
G1 X140.446 Y72.129 E12.03479
G1 X140.735 Y72.189 E12.04461
G1 X141.644 Y72.42 E12.0758
G1 X142.497 Y72.717 E12.10584
G1 X143.38 Y73.116 E12.13807
G1 X143.97 Y73.44 E12.16046
G1 X144.284 Y73.625 E12.17258
G1 X145.041 Y74.119 E12.20265
G1 X145.808 Y74.723 E12.23512
G1 X146.608 Y75.489 E12.27196
G1 X146.803 Y75.697 E12.28144
G1 X147.391 Y76.382 E12.31146
G1 X147.956 Y77.175 E12.34385
G1 X148.415 Y77.952 E12.37386
G1 X148.544 Y78.195 E12.38301
G1 X148.947 Y79.042 E12.41421
G1 X149.263 Y79.888 E12.44425
G1 X149.579 Y81.1 E12.48591
G1 X149.639 Y81.405 E12.49625
G1 X149.779 Y82.333 E12.52746
G1 X149.838 Y83.283 E12.55912
G1 X149.848 Y83.91 E12.57998
G1 X149.848 Y136.019 E14.31313
G1 X149.835 Y136.755 E14.33761
G1 X149.776 Y137.694 E14.36891
G1 X149.623 Y138.678 E14.40203
G1 X149.566 Y138.955 E14.41143
G1 X149.337 Y139.865 E14.44264
G1 X149.028 Y140.752 E14.47388
G1 X148.658 Y141.575 E14.5039
G1 X148.368 Y142.116 E14.52431
G1 X148.191 Y142.423 E14.5361
G1 X147.675 Y143.228 E14.5679
G1 X147.125 Y143.944 E14.59793
G1 X146.261 Y144.858 E14.63976
G1 X146.053 Y145.053 E14.64924
G1 X145.368 Y145.641 E14.67927
G1 X144.575 Y146.206 E14.71166
G1 X143.798 Y146.665 E14.74167
G1 X143.555 Y146.794 E14.75082
G1 X142.708 Y147.197 E14.78202
G1 X141.862 Y147.513 E14.81206
G1 X140.629 Y147.833 E14.85442
G1 X140.321 Y147.894 E14.86487
G1 X139.428 Y148.028 E14.8949
G1 X138.456 Y148.088 E14.92729
G1 X137.791 Y148.098 E14.94941
G1 X82.247 Y148.099 E16.79681
G1 X81.516 Y148.087 E16.82113
G1 X80.578 Y148.029 E16.85239
G1 X79.597 Y147.879 E16.88539
G1 X79.303 Y147.819 E16.89537
G1 X78.391 Y147.591 E16.92664
G1 X77.506 Y147.283 E16.95781
G1 X76.653 Y146.9 E16.98891
G1 X76.03 Y146.56 E17.01251
G1 X75.716 Y146.375 E17.02464
G1 X74.959 Y145.881 E17.0547
G1 X74.192 Y145.277 E17.08717
G1 X73.393 Y144.512 E17.12396
G1 X73.197 Y144.303 E17.13349
G1 X72.609 Y143.618 E17.16352
G1 X72.043 Y142.825 E17.19592
G1 X71.549 Y141.98 E17.22848
G1 X71.42 Y141.733 E17.23775
G1 X71.022 Y140.882 E17.26899
G1 X70.701 Y139.996 E17.30034
G1 X70.42 Y138.896 E17.3381
G1 X70.356 Y138.571 E17.34911
G1 X70.222 Y137.678 E17.37915
G1 X70.162 Y136.702 E17.41167
G1 X70.152 Y136.022 E17.43429
G1 X70.15 Y84.122 E19.16049
G1 X70.165 Y83.237 E19.18993
G1 X70.224 Y82.298 E19.22122
G1 X70.377 Y81.316 E19.25428
G1 X70.436 Y81.03 E19.26399
G1 X70.666 Y80.12 E19.29521
G1 X70.975 Y79.234 E19.32642
G1 X71.36 Y78.382 E19.35752
G1 X71.69 Y77.78 E19.38035
G1 X71.875 Y77.466 E19.39247
G1 X72.369 Y76.709 E19.42254
G1 X72.973 Y75.942 E19.45501
G1 X73.739 Y75.142 E19.49185
G0 F6000 X74.013 Y75.434
G1 F1200 X74.208 Y75.251 E19.50074
G1 X74.893 Y74.663 E19.53077
G1 X75.628 Y74.138 E19.56081
G1 X76.39 Y73.688 E19.59024
G1 X76.617 Y73.567 E19.5988
G1 X77.432 Y73.178 E19.62883
G1 X78.278 Y72.862 E19.65887
G1 X79.448 Y72.559 E19.69907
G1 X79.738 Y72.502 E19.7089
G1 X80.631 Y72.368 E19.73893
G1 X81.55 Y72.312 E19.76956
G1 X82.209 Y72.302 E19.79148
G1 X137.59 Y72.3 E21.63346
G1 X138.464 Y72.312 E21.66253
G1 X139.366 Y72.366 E21.69258
G1 X140.365 Y72.521 E21.72621
G1 X140.637 Y72.577 E21.73544
G1 X141.512 Y72.798 E21.76546
G1 X142.365 Y73.095 E21.7955
G1 X143.188 Y73.467 E21.82554
G1 X143.767 Y73.784 E21.8475
G1 X144.065 Y73.96 E21.85901
G1 X144.822 Y74.454 E21.88907
G1 X145.531 Y75.012 E21.91908
G1 X146.316 Y75.763 E21.95521
G1 X146.499 Y75.958 E21.96411
G1 X147.087 Y76.643 E21.99413
G1 X147.612 Y77.378 E22.02418
G1 X148.062 Y78.14 E22.05361
G1 X148.183 Y78.367 E22.06217
G1 X148.572 Y79.182 E22.0922
G1 X148.888 Y80.028 E22.12224
G1 X149.187 Y81.178 E22.16176
G1 X149.244 Y81.465 E22.17149
G1 X149.38 Y82.358 E22.20154
G1 X149.438 Y83.289 E22.23256
G1 X149.448 Y83.916 E22.25342
G1 X149.448 Y136.012 E23.98614
G1 X149.436 Y136.731 E24.01005
G1 X149.381 Y137.633 E24.04011
G1 X149.231 Y138.598 E24.07259
G1 X149.178 Y138.858 E24.08142
G1 X148.959 Y139.734 E24.11145
G1 X148.663 Y140.588 E24.14151
G1 X148.293 Y141.411 E24.17152
G1 X148.021 Y141.916 E24.1906
G1 X147.844 Y142.223 E24.20239
G1 X147.358 Y142.984 E24.23242
G1 X146.808 Y143.7 E24.26245
G1 X145.987 Y144.566 E24.30214
G1 X145.792 Y144.749 E24.31103
G1 X145.107 Y145.337 E24.34106
G1 X144.372 Y145.862 E24.3711
G1 X143.61 Y146.312 E24.40054
G1 X143.383 Y146.433 E24.40909
G1 X142.568 Y146.822 E24.43913
G1 X141.722 Y147.138 E24.46917
G1 X140.552 Y147.441 E24.50936
G1 X140.262 Y147.498 E24.51919
G1 X139.369 Y147.632 E24.54923
G1 X138.45 Y147.688 E24.57985
G1 X137.791 Y147.698 E24.60177
G1 X82.253 Y147.699 E26.44897
G1 X81.54 Y147.688 E26.47269
G1 X80.638 Y147.634 E26.50274
G1 X79.676 Y147.487 E26.53511
G1 X79.399 Y147.431 E26.54451
G1 X78.522 Y147.213 E26.57457
G1 X77.669 Y146.918 E26.60459
G1 X76.844 Y146.549 E26.63465
G1 X76.233 Y146.216 E26.65779
G1 X75.935 Y146.04 E26.6693
G1 X75.178 Y145.546 E26.69937
G1 X74.469 Y144.988 E26.72938
G1 X73.685 Y144.238 E26.76546
G1 X73.501 Y144.042 E26.7744
G1 X72.913 Y143.357 E26.80443
G1 X72.388 Y142.623 E26.83444
G1 X71.903 Y141.794 E26.86639
G1 X71.782 Y141.563 E26.87506
G1 X71.398 Y140.745 E26.90512
G1 X71.089 Y139.897 E26.93514
G1 X70.808 Y138.797 E26.9729
G1 X70.752 Y138.512 E26.98256
G1 X70.618 Y137.619 E27.01259
G1 X70.562 Y136.696 E27.04335
G1 X70.552 Y136.022 E27.06577
G1 X70.55 Y84.128 E28.79177
G1 X70.564 Y83.261 E28.82061
G1 X70.619 Y82.36 E28.85063
G1 X70.769 Y81.396 E28.88308
G1 X70.824 Y81.127 E28.89221
G1 X71.044 Y80.251 E28.92225
G1 X71.34 Y79.398 E28.95228
G1 X71.711 Y78.574 E28.98234
G1 X72.034 Y77.983 E29.00474
G1 X72.21 Y77.685 E29.01625
G1 X72.704 Y76.928 E29.04632
G1 X73.262 Y76.219 E29.07632
G1 X74.013 Y75.434 E29.11246
G1 F1500 E22.61246
;MESH:nuvu-enclosure-Back.stl
G0 F6000 X80.106 Y83.281
G0 X81.677 Y136.898
;TYPE:WALL-INNER
G1 F1500 E29.11246
G1 F1200 X138.238 Y136.898 E30.99368
G1 X138.384 Y136.869 E30.99864
G1 X138.522 Y136.785 E31.00401
G1 X138.648 Y136.575 E31.01215
G1 X138.649 Y83.513 E32.777
G1 X138.62 Y83.366 E32.78199
G1 X138.535 Y83.228 E32.78738
G1 X138.368 Y83.127 E32.79387
G1 X138.235 Y83.1 E32.79838
G1 X81.763 Y83.101 E34.67665
G1 X81.616 Y83.13 E34.68163
G1 X81.478 Y83.215 E34.68702
G1 X81.377 Y83.382 E34.69351
G1 X81.35 Y83.514 E34.698
G1 X81.352 Y136.488 E36.45992
G1 X81.381 Y136.634 E36.46487
G1 X81.465 Y136.772 E36.47024
G1 X81.677 Y136.898 E36.47844
G1 F1500 E29.97844
G0 F6000 X81.576 Y136.722
G0 X138.337 Y136.765
G0 X138.521 Y137.25
;TYPE:WALL-OUTER
G1 F1500 E36.47844
G1 F1200 X138.834 Y137.043 E36.49093
G1 X139.001 Y136.764 E36.50174
G1 X139.048 Y136.528 E36.50974
G1 X139.049 Y83.473 E38.27436
G1 X139 Y83.229 E38.28264
G1 X138.793 Y82.916 E38.29512
G1 X138.514 Y82.749 E38.30593
G1 X138.275 Y82.7 E38.31405
G1 X81.723 Y82.701 E40.19498
G1 X81.479 Y82.75 E40.20325
G1 X81.166 Y82.957 E40.21573
G1 X80.999 Y83.236 E40.22655
G1 X80.95 Y83.474 E40.23463
G1 X80.952 Y136.528 E41.99921
G1 X81 Y136.771 E42.00745
G1 X81.207 Y137.084 E42.01993
G1 X81.486 Y137.251 E42.03075
G1 X81.724 Y137.299 E42.03882
G1 X138.278 Y137.298 E43.91982
G1 X138.521 Y137.25 E43.92806
G1 F1500 E37.42806
G0 F6000 X138.337 Y136.765
G0 X81.721 Y136.736
G0 X81.486 Y136.59
G0 X81.712 Y136.501
;TYPE:SKIN
G1 F1500 E43.92806
G1 F1200 X81.71 Y83.526 E45.69001
G1 X81.807 Y83.461 E45.6939
G1 X138.224 Y83.46 E47.57033
G1 X138.288 Y83.557 E47.5742
G1 X138.288 Y136.476 E49.33429
G1 X138.25 Y136.538 E49.33671
G1 X81.775 Y136.538 E51.21508
G1 X81.712 Y136.501 E51.21751
G0 F6000 X81.911 Y136.217
G1 F1200 X82.03 Y136.336 E51.2231
G0 F6000 X82.596 Y136.336
G1 F1200 X81.911 Y135.652 E51.2553
G0 F6000 X81.911 Y135.086
G1 F1200 X83.162 Y136.336 E51.31412
G0 F6000 X83.727 Y136.336
G1 F1200 X81.911 Y134.52 E51.39954
G0 F6000 X81.911 Y133.955
G1 F1200 X84.293 Y136.336 E51.51156
G0 F6000 X84.859 Y136.336
G1 F1200 X81.911 Y133.389 E51.6502
G0 F6000 X81.911 Y132.823
G1 F1200 X85.424 Y136.336 E51.81544
G0 F6000 X85.99 Y136.336
G1 F1200 X81.911 Y132.257 E52.0073
G0 F6000 X81.911 Y131.692
G1 F1200 X86.556 Y136.336 E52.22577
G0 F6000 X87.121 Y136.336
G1 F1200 X81.911 Y131.126 E52.47083
G0 F6000 X81.911 Y130.56
G1 F1200 X87.687 Y136.336 E52.74251
G0 F6000 X88.253 Y136.336
G1 F1200 X81.911 Y129.995 E53.0408
G0 F6000 X81.911 Y129.429
G1 F1200 X88.818 Y136.336 E53.36568
G0 F6000 X89.384 Y136.336
G1 F1200 X81.911 Y128.863 E53.71719
G0 F6000 X81.911 Y128.298
G1 F1200 X89.95 Y136.336 E54.0953
G0 F6000 X90.516 Y136.336
G1 F1200 X81.911 Y127.732 E54.50003
G0 F6000 X81.911 Y127.166
G1 F1200 X91.081 Y136.336 E54.93135
G0 F6000 X91.647 Y136.336
G1 F1200 X81.911 Y126.601 E55.38928
G0 F6000 X81.911 Y126.035
G1 F1200 X92.213 Y136.336 E55.87383
G0 F6000 X92.778 Y136.336
G1 F1200 X81.911 Y125.469 E56.38498
G0 F6000 X81.911 Y124.904
G1 F1200 X93.344 Y136.336 E56.92273
G0 F6000 X93.91 Y136.336
G1 F1200 X81.911 Y124.338 E57.48711
G0 F6000 X81.911 Y123.772
G1 F1200 X94.475 Y136.336 E58.07808
G0 F6000 X95.041 Y136.336
G1 F1200 X81.911 Y123.206 E58.69567
G0 F6000 X81.911 Y122.64
G1 F1200 X95.607 Y136.336 E59.33989
G0 F6000 X96.172 Y136.336
G1 F1200 X81.911 Y122.074 E60.01071
G0 F6000 X81.911 Y121.509
G1 F1200 X96.738 Y136.336 E60.70812
G0 F6000 X97.304 Y136.336
G1 F1200 X81.911 Y120.943 E61.43216
G0 F6000 X81.911 Y120.377
G1 F1200 X97.869 Y136.336 E62.1828
G0 F6000 X98.435 Y136.336
G1 F1200 X81.911 Y119.812 E62.96004
G0 F6000 X81.911 Y119.246
G1 F1200 X99.001 Y136.336 E63.7639
G0 F6000 X99.566 Y136.336
G1 F1200 X81.911 Y118.68 E64.59436
G0 F6000 X81.911 Y118.115
G1 F1200 X100.132 Y136.336 E65.45142
G0 F6000 X100.698 Y136.336
G1 F1200 X81.911 Y117.549 E66.33511
G0 F6000 X81.911 Y116.983
G1 F1200 X101.264 Y136.336 E67.24541
G0 F6000 X101.829 Y136.336
G1 F1200 X81.911 Y116.418 E68.18229
G0 F6000 X81.911 Y115.852
G1 F1200 X102.395 Y136.336 E69.1458
G0 F6000 X102.961 Y136.336
G1 F1200 X81.911 Y115.286 E70.13593
G0 F6000 X81.911 Y114.721
G1 F1200 X103.526 Y136.336 E71.15263
G0 F6000 X104.092 Y136.336
G1 F1200 X81.911 Y114.155 E72.19595
G0 F6000 X81.911 Y113.589
G1 F1200 X104.658 Y136.336 E73.2659
G0 F6000 X105.223 Y136.336
G1 F1200 X81.911 Y113.023 E74.36245
G0 F6000 X81.911 Y112.458
G1 F1200 X105.789 Y136.336 E75.4856
G0 F6000 X106.355 Y136.336
G1 F1200 X81.911 Y111.892 E76.63537
G0 F6000 X81.911 Y111.326
G1 F1200 X106.92 Y136.336 E77.81174
G0 F6000 X107.486 Y136.336
G1 F1200 X81.911 Y110.761 E79.01471
G0 F6000 X81.911 Y110.195
G1 F1200 X108.052 Y136.336 E80.2443
G0 F6000 X108.617 Y136.336
G1 F1200 X81.91 Y109.629 E81.50052
G0 F6000 X81.91 Y109.063
G1 F1200 X109.183 Y136.336 E82.78336
G0 F6000 X109.749 Y136.336
G1 F1200 X81.91 Y108.497 E84.09282
G0 F6000 X81.91 Y107.932
G1 F1200 X110.315 Y136.336 E85.42888
G0 F6000 X110.88 Y136.336
G1 F1200 X81.91 Y107.366 E86.79154
G0 F6000 X81.91 Y106.8
G1 F1200 X111.446 Y136.336 E88.18082
G0 F6000 X112.012 Y136.336
G1 F1200 X81.91 Y106.235 E89.5967
G0 F6000 X81.91 Y105.669
G1 F1200 X112.577 Y136.336 E91.03919
G0 F6000 X113.143 Y136.336
G1 F1200 X81.91 Y105.103 E92.50829
G0 F6000 X81.91 Y104.537
G1 F1200 X113.709 Y136.336 E94.00402
G0 F6000 X114.274 Y136.336
G1 F1200 X81.91 Y103.972 E95.52632
G0 F6000 X81.91 Y103.406
G1 F1200 X114.84 Y136.336 E97.07525
G0 F6000 X115.406 Y136.336
G1 F1200 X81.91 Y102.84 E98.6508
G0 F6000 X81.91 Y102.275
G1 F1200 X115.971 Y136.336 E100.25292
G0 F6000 X116.537 Y136.336
G1 F1200 X81.91 Y101.709 E101.88167
G0 F6000 X81.91 Y101.143
G1 F1200 X117.103 Y136.336 E103.53704
G0 F6000 X117.668 Y136.336
G1 F1200 X81.91 Y100.578 E105.21899
G0 F6000 X81.91 Y100.012
G1 F1200 X118.234 Y136.336 E106.92756
G0 F6000 X118.8 Y136.336
G1 F1200 X81.91 Y99.446 E108.66275
G0 F6000 X81.91 Y98.881
G1 F1200 X119.365 Y136.336 E110.42452
G0 F6000 X119.931 Y136.336
G1 F1200 X81.91 Y98.315 E112.21291
G0 F6000 X81.91 Y97.749
G1 F1200 X120.497 Y136.336 E114.02792
G0 F6000 X121.063 Y136.336
G1 F1200 X81.91 Y97.184 E115.86954
G0 F6000 X81.909 Y96.617
