;FLAVOR:Marlin
;TIME:1449
;Filament used: 0.917554m
;Layer height: 0.2
;MINX:71.5
;MINY:80.75
;MINZ:0.2
;MAXX:148.5
;MAXY:139.25
;MAXZ:3
;Generated with Cura_SteamEngine 5.4.0
M82 ;absolute extrusion mode
; Ender 3 Custom Start G-code
G92 E0 ; Reset Extruder
G28 ; Home all axes
M104 S175 ; Start heating up the nozzle most of the way
M190 S60 ; Start heating the bed, wait until target temperature reached
M109 S200 ; Finish heating the nozzle
G1 Z2.0 F3000 ; Move Z Axis up little to prevent scratching of Heat Bed
G1 X0.1 Y20 Z0.3 F5000.0 ; Move to start position
G1 X0.1 Y200.0 Z0.3 F1500.0 E15 ; Draw the first line
G1 X0.4 Y200.0 Z0.3 F5000.0 ; Move to side a little
G1 X0.4 Y20 Z0.3 F1500.0 E30 ; Draw the second line
G92 E0 ; Reset Extruder
G1 Z2.0 F3000 ; Move Z Axis up little to prevent scratching of Heat Bed
G1 X5 Y20 Z0.3 F5000.0 ; Move over to prevent blob squish
G92 E0
G92 E0
G1 F1500 E-6.5
;LAYER_COUNT:15
;LAYER:0
M107
G0 F6000 X74.956 Y83.763 Z0.2
;TYPE:SKIRT
G1 F1500 E0
G1 F1200 X75.692 Y83.126 E0.03237
G1 X76.424 Y82.596 E0.06243
G1 X77.321 Y82.061 E0.09717
G1 X78.199 Y81.64 E0.12956
G1 X79.112 Y81.298 E0.16198
G1 X80.049 Y81.039 E0.19432
G1 X81.016 Y80.861 E0.22702
G1 X82.155 Y80.765 E0.26504
G1 X82.812 Y80.75 E0.2869
G1 X136.804 Y80.75 E2.08268
G1 X137.684 Y80.763 E2.11195
G1 X138.656 Y80.822 E2.14434
G1 X139.619 Y80.968 E2.17673
G1 X140.566 Y81.199 E2.20915
G1 X141.454 Y81.499 E2.24033
G1 X142.346 Y81.889 E2.27271
G1 X143.229 Y82.376 E2.30625
G1 X143.98 Y82.878 E2.33629
G1 X144.795 Y83.536 E2.37113
G1 X145.493 Y84.214 E2.4035
G1 X146.129 Y84.951 E2.43587
G1 X146.699 Y85.741 E2.46827
G1 X147.161 Y86.517 E2.49831
G1 X147.615 Y87.459 E2.53309
G1 X147.944 Y88.337 E2.56428
G1 X148.213 Y89.309 E2.59782
G1 X148.39 Y90.275 E2.63049
G1 X148.485 Y91.405 E2.6682
G1 X148.5 Y92.08 E2.69066
G1 X148.499 Y127.65 E3.87372
G1 X148.488 Y128.413 E3.8991
G1 X148.431 Y129.386 E3.93152
G1 X148.286 Y130.349 E3.96391
G1 X148.057 Y131.295 E3.99628
G1 X147.746 Y132.219 E4.02871
G1 X147.354 Y133.11 E4.06109
G1 X146.886 Y133.962 E4.09342
G1 X146.364 Y134.743 E4.12466
G1 X145.731 Y135.528 E4.1582
G1 X145.106 Y136.179 E4.18822
G1 X144.317 Y136.867 E4.22303
G1 X143.557 Y137.417 E4.25424
G1 X142.69 Y137.934 E4.28781
G1 X141.812 Y138.356 E4.32021
G1 X140.901 Y138.698 E4.35258
G1 X139.962 Y138.959 E4.38499
G1 X138.996 Y139.137 E4.41766
G1 X137.845 Y139.235 E4.45608
G1 X137.17 Y139.25 E4.47854
G1 X83.064 Y139.249 E6.27811
G1 X82.331 Y139.238 E6.30249
G1 X81.359 Y139.181 E6.33488
G1 X80.396 Y139.035 E6.36727
G1 X79.45 Y138.806 E6.39965
G1 X78.526 Y138.494 E6.43208
G1 X77.636 Y138.102 E6.46443
G1 X76.813 Y137.651 E6.49564
G1 X75.974 Y137.09 E6.52921
G1 X75.27 Y136.524 E6.55926
G1 X74.517 Y135.799 E6.59402
G1 X73.88 Y135.063 E6.6264
G1 X73.35 Y134.332 E6.65643
G1 X72.814 Y133.435 E6.69118
G1 X72.392 Y132.557 E6.72358
G1 X72.05 Y131.645 E6.75598
G1 X71.79 Y130.707 E6.78835
G1 X71.612 Y129.738 E6.82112
G1 X71.514 Y128.559 E6.86047
G1 X71.5 Y127.908 E6.88213
G1 X71.501 Y92.275 E8.06729
G1 X71.512 Y91.575 E8.09057
G1 X71.57 Y90.602 E8.12299
G1 X71.716 Y89.639 E8.15539
G1 X71.946 Y88.693 E8.18777
G1 X72.259 Y87.77 E8.22018
G1 X72.651 Y86.88 E8.25253
G1 X73.121 Y86.027 E8.28492
G1 X73.664 Y85.219 E8.3173
G1 X74.231 Y84.515 E8.34737
G1 X74.956 Y83.763 E8.38211
G0 F6000 X75.218 Y84.065
G1 F1200 X75.927 Y83.45 E8.41333
G1 X76.659 Y82.92 E8.44338
G1 X77.495 Y82.421 E8.47577
G1 X78.34 Y82.014 E8.50696
G1 X79.219 Y81.683 E8.5382
G1 X80.122 Y81.432 E8.56937
G1 X81.05 Y81.26 E8.60076
G1 X82.189 Y81.164 E8.63878
G1 X82.821 Y81.15 E8.65981
G1 X136.798 Y81.15 E10.45509
G1 X137.66 Y81.162 E10.48376
G1 X138.597 Y81.218 E10.51498
G1 X139.525 Y81.357 E10.54619
G1 X140.438 Y81.578 E10.57744
G1 X141.294 Y81.866 E10.60748
G1 X142.186 Y82.256 E10.63986
G1 X143.007 Y82.709 E10.67104
G1 X143.758 Y83.211 E10.70109
G1 X144.517 Y83.823 E10.73352
G1 X145.191 Y84.476 E10.76473
G1 X145.805 Y85.185 E10.79592
G1 X146.355 Y85.946 E10.82715
G1 X146.817 Y86.722 E10.85719
G1 X147.24 Y87.599 E10.88958
G1 X147.569 Y88.477 E10.92076
G1 X147.82 Y89.382 E10.952
G1 X147.991 Y90.309 E10.98335
G1 X148.086 Y91.439 E11.02107
G1 X148.1 Y92.08 E11.04239
G1 X148.099 Y127.645 E12.22529
G1 X148.089 Y128.39 E12.25007
G1 X148.035 Y129.327 E12.28129
G1 X147.897 Y130.256 E12.31252
G1 X147.678 Y131.168 E12.34372
G1 X147.38 Y132.058 E12.37494
G1 X147.003 Y132.918 E12.40617
G1 X146.553 Y133.74 E12.43734
G1 X146.031 Y134.521 E12.46858
G1 X145.442 Y135.251 E12.49978
G1 X144.817 Y135.902 E12.52979
G1 X144.082 Y136.543 E12.56223
G1 X143.322 Y137.093 E12.59343
G1 X142.516 Y137.574 E12.62465
G1 X141.671 Y137.982 E12.65586
G1 X140.793 Y138.313 E12.68707
G1 X139.889 Y138.566 E12.71829
G1 X138.962 Y138.738 E12.74965
G1 X137.811 Y138.836 E12.78807
G1 X137.17 Y138.85 E12.8094
G1 X83.07 Y138.849 E14.60877
G1 X82.354 Y138.839 E14.63259
G1 X81.418 Y138.785 E14.66377
G1 X80.489 Y138.646 E14.69501
G1 X79.577 Y138.427 E14.72621
G1 X78.687 Y138.128 E14.75744
G1 X77.828 Y137.751 E14.78864
G1 X77.005 Y137.3 E14.81985
G1 X76.225 Y136.778 E14.85107
G1 X75.521 Y136.212 E14.88111
G1 X74.819 Y135.537 E14.9135
G1 X74.204 Y134.828 E14.94472
G1 X73.674 Y134.097 E14.97475
G1 X73.174 Y133.261 E15.00715
G1 X72.766 Y132.416 E15.03836
G1 X72.435 Y131.538 E15.06957
G1 X72.183 Y130.634 E15.10078
G1 X72.011 Y129.705 E15.1322
G1 X71.913 Y128.526 E15.17155
G1 X71.9 Y127.908 E15.19211
G1 X71.901 Y92.281 E16.37707
G1 X71.911 Y91.598 E16.39979
G1 X71.966 Y90.661 E16.43101
G1 X72.105 Y89.733 E16.46222
G1 X72.325 Y88.821 E16.49342
G1 X72.625 Y87.931 E16.52466
G1 X73.002 Y87.072 E16.55586
G1 X73.453 Y86.25 E16.58705
G1 X73.976 Y85.47 E16.61828
G1 X74.543 Y84.766 E16.64835
G1 X75.218 Y84.065 E16.68071
G0 F6000 X75.481 Y84.367
G1 F1200 X76.162 Y83.774 E16.71075
G1 X76.894 Y83.244 E16.7408
G1 X77.669 Y82.781 E16.77083
G1 X78.482 Y82.388 E16.80086
G1 X79.327 Y82.068 E16.83092
G1 X80.196 Y81.825 E16.86093
G1 X81.084 Y81.659 E16.89098
G1 X82.223 Y81.563 E16.92899
G1 X82.83 Y81.55 E16.94919
G1 X136.793 Y81.55 E18.744
G1 X137.637 Y81.561 E18.77208
G1 X138.539 Y81.614 E18.80213
G1 X139.432 Y81.746 E18.83215
G1 X140.31 Y81.957 E18.86219
G1 X141.166 Y82.245 E18.89223
G1 X141.993 Y82.607 E18.92225
G1 X142.785 Y83.042 E18.95231
G1 X143.536 Y83.544 E18.98235
G1 X144.239 Y84.111 E19.01239
G1 X144.889 Y84.738 E19.04243
G1 X145.481 Y85.42 E19.07247
G1 X146.011 Y86.151 E19.1025
G1 X146.473 Y86.927 E19.13253
G1 X146.866 Y87.74 E19.16257
G1 X147.184 Y88.585 E19.1926
G1 X147.427 Y89.455 E19.22264
G1 X147.592 Y90.343 E19.25268
G1 X147.687 Y91.473 E19.2904
G1 X147.7 Y92.08 E19.31059
G1 X147.699 Y127.64 E20.49332
G1 X147.69 Y128.367 E20.5175
G1 X147.639 Y129.269 E20.54755
G1 X147.508 Y130.163 E20.57761
G1 X147.299 Y131.041 E20.60762
G1 X147.013 Y131.898 E20.63767
G1 X146.652 Y132.726 E20.66772
G1 X146.22 Y133.518 E20.69772
G1 X145.719 Y134.27 E20.72778
G1 X145.153 Y134.974 E20.75782
G1 X144.528 Y135.625 E20.78784
G1 X143.847 Y136.219 E20.81789
G1 X143.116 Y136.75 E20.84794
G1 X142.342 Y137.214 E20.87796
G1 X141.529 Y137.608 E20.90801
G1 X140.685 Y137.928 E20.93803
G1 X139.815 Y138.173 E20.96809
G1 X138.928 Y138.339 E20.9981
G1 X137.777 Y138.437 E21.03652
G1 X137.17 Y138.45 E21.05672
G1 X83.075 Y138.449 E22.85592
G1 X82.377 Y138.44 E22.87914
G1 X81.476 Y138.389 E22.90916
G1 X80.582 Y138.257 E22.93921
G1 X79.704 Y138.048 E22.96923
G1 X78.847 Y137.761 E22.99929
G1 X78.02 Y137.4 E23.02931
G1 X77.227 Y136.967 E23.05936
G1 X76.476 Y136.466 E23.08938
G1 X75.772 Y135.9 E23.11943
G1 X75.121 Y135.274 E23.14947
G1 X74.528 Y134.593 E23.1795
G1 X73.998 Y133.862 E23.20953
G1 X73.534 Y133.087 E23.23957
G1 X73.14 Y132.274 E23.26962
G1 X72.82 Y131.43 E23.29964
G1 X72.576 Y130.56 E23.3297
G1 X72.41 Y129.672 E23.35974
G1 X72.313 Y128.517 E23.39829
G1 X72.3 Y127.908 E23.41855
G1 X72.301 Y92.286 E24.60335
G1 X72.31 Y91.621 E24.62547
G1 X72.362 Y90.719 E24.65552
G1 X72.494 Y89.826 E24.68554
G1 X72.704 Y88.948 E24.71557
G1 X72.991 Y88.091 E24.74563
G1 X73.353 Y87.264 E24.77565
G1 X73.786 Y86.472 E24.80567
G1 X74.288 Y85.721 E24.83572
G1 X74.855 Y85.017 E24.86578
G1 X75.481 Y84.367 E24.8958
G1 F1500 E18.3958
;MESH:nuvu-enclosure.stl
G0 F6000 X87.719 Y97.751
G0 X87.984 Y122.558
;TYPE:WALL-INNER
G1 F1500 E24.8958
G1 F1200 X87.9 Y122.25 E24.90642
G1 X87.9 Y97.638 E25.72502
G1 X87.984 Y97.442 E25.73211
G1 X88.192 Y97.234 E25.74189
G1 X88.5 Y97.15 E25.75251
G1 X131.612 Y97.15 E27.18642
G1 X131.808 Y97.234 E27.19351
G1 X132.016 Y97.442 E27.2033
G1 X132.1 Y97.75 E27.21392
G1 X132.1 Y122.362 E28.03251
G1 X132.016 Y122.558 E28.03961
G1 X131.808 Y122.766 E28.04939
G1 X131.612 Y122.85 E28.05648
G1 X88.388 Y122.85 E29.49412
G1 X88.192 Y122.766 E29.50121
G1 X87.984 Y122.558 E29.511
G1 F1500 E23.011
G0 F6000 X131.499 Y123.031
G0 X131.497 Y127.469
G0 X136.9 Y127.65
G1 F1500 E29.511
G1 F1200 X136.9 Y92.35 E30.68508
G1 X83.101 Y92.351 E32.47444
G1 X83.101 Y127.649 E33.64846
G1 X136.9 Y127.65 E35.43782
G0 F6000 X137.3 Y128.05
;TYPE:WALL-OUTER
G1 F1200 X137.3 Y91.95 E36.63851
G1 X82.701 Y91.951 E38.45448
G1 X82.701 Y128.049 E39.6551
G1 X137.3 Y128.05 E41.47107
G1 F1500 E34.97107
G0 F6000 X137.03 Y127.78
G0 X131.583 Y127.469
G0 X131.499 Y123.031
G0 X131.585 Y122.448
G1 F1500 E41.47107
G1 F1200 X88.461 Y122.45 E42.90538
G1 X88.302 Y122.334 E42.91193
G1 X88.3 Y97.711 E43.73089
G1 X88.416 Y97.552 E43.73744
G1 X131.539 Y97.55 E45.17172
G1 X131.7 Y97.711 E45.17929
G1 X131.698 Y122.285 E45.99663
G1 X131.585 Y122.448 E46.00322
G1 F1500 E39.50322
G0 F6000 X131.585 Y122.75
G0 X131.9 Y122.921
G0 X131.898 Y127.469
G0 X136.54 Y127.29
;TYPE:SKIN
G1 F1500 E46.00322
G1 F1200 X83.461 Y127.289 E47.76864
G1 X83.461 Y92.711 E48.91871
G1 X136.54 Y92.71 E50.68412
G1 X136.54 Y127.29 E51.83426
G1 F1500 E45.33426
G0 F6000 X136.538 Y127.549
G0 X131.853 Y127.469
G0 X131.499 Y123.031
G0 X132.007 Y123.071
G1 F1500 E51.83426
G1 F1200 X132.321 Y122.757 E51.84903
G1 X132.431 Y122.49 E51.85863
G1 X132.459 Y122.273 E51.86591
G1 X132.459 Y97.727 E52.68231
G1 X132.432 Y97.519 E52.68929
G1 X132.322 Y97.244 E52.69914
G1 X132.035 Y96.957 E52.71264
G1 X131.785 Y96.833 E52.72192
G1 X131.523 Y96.791 E52.73074
G1 X88.477 Y96.791 E54.16246
G1 X88.26 Y96.819 E54.16974
G1 X87.993 Y96.929 E54.17934
G1 X87.707 Y97.215 E54.19279
G1 X87.583 Y97.465 E54.20208
G1 X87.541 Y97.727 E54.2109
G1 X87.541 Y122.273 E55.0273
G1 X87.569 Y122.49 E55.03458
G1 X87.679 Y122.757 E55.04419
G1 X87.965 Y123.043 E55.05764
G1 X88.215 Y123.167 E55.06692
G1 X88.477 Y123.209 E55.07575
G1 X131.523 Y123.209 E56.50746
G1 X131.74 Y123.181 E56.51474
G1 X132.007 Y123.071 E56.52434
G1 F1500 E50.02434
G0 F6000 X131.855 Y122.855
G0 X132.281 Y97.751
G0 X136.7 Y97.751
G0 X136.339 Y93.347
G1 F1500 E56.52434
G1 F1200 X135.902 Y92.91 E56.5449
G0 F6000 X135.336 Y92.91
G1 F1200 X136.339 Y93.912 E56.59205
G0 F6000 X136.339 Y94.478
G1 F1200 X134.771 Y92.91 E56.66581
G0 F6000 X134.205 Y92.91
G1 F1200 X136.339 Y95.044 E56.76618
G0 F6000 X136.339 Y95.61
G1 F1200 X133.639 Y92.91 E56.89318
G0 F6000 X133.073 Y92.91
G1 F1200 X136.339 Y96.175 E57.04678
G0 F6000 X136.339 Y96.741
G1 F1200 X132.508 Y92.91 E57.22698
G0 F6000 X131.942 Y92.91
G1 F1200 X136.339 Y97.307 E57.4338
G0 F6000 X136.339 Y97.872
G1 F1200 X131.376 Y92.91 E57.66722
G0 F6000 X130.811 Y92.91
G1 F1200 X136.339 Y98.438 E57.92724
G0 F6000 X136.339 Y99.004
G1 F1200 X130.245 Y92.91 E58.21389
G0 F6000 X129.679 Y92.91
G1 F1200 X136.339 Y99.569 E58.52713
G0 F6000 X136.339 Y100.135
G1 F1200 X129.114 Y92.91 E58.86697
G0 F6000 X128.548 Y92.91
G1 F1200 X136.339 Y100.701 E59.23344
G0 F6000 X136.339 Y101.266
G1 F1200 X132.636 Y97.564 E59.40759
G0 F6000 X132.658 Y98.151
G1 F1200 X136.339 Y101.832 E59.58073
G0 F6000 X136.339 Y102.398
G1 F1200 X132.658 Y98.717 E59.75388
G0 F6000 X132.658 Y99.282
G1 F1200 X136.339 Y102.963 E59.92702
G0 F6000 X136.339 Y103.529
G1 F1200 X132.658 Y99.848 E60.10016
G0 F6000 X132.658 Y100.414
G1 F1200 X136.339 Y104.095 E60.27331
G0 F6000 X136.339 Y104.66
G1 F1200 X132.658 Y100.979 E60.44645
G0 F6000 X132.658 Y101.545
G1 F1200 X136.339 Y105.226 E60.61959
G0 F6000 X136.339 Y105.792
G1 F1200 X132.658 Y102.111 E60.79273
G0 F6000 X132.658 Y102.676
G1 F1200 X136.339 Y106.358 E60.9659
G0 F6000 X136.339 Y106.923
G1 F1200 X132.658 Y103.242 E61.13904
G0 F6000 X132.658 Y103.808
G1 F1200 X136.339 Y107.489 E61.31219
G0 F6000 X136.339 Y108.055
G1 F1200 X132.658 Y104.373 E61.48535
G0 F6000 X132.658 Y104.939
G1 F1200 X136.339 Y108.62 E61.6585
G0 F6000 X136.339 Y109.186
G1 F1200 X132.658 Y105.505 E61.83164
G0 F6000 X132.657 Y106.07
G1 F1200 X136.339 Y109.752 E62.00483
G0 F6000 X136.339 Y110.317
G1 F1200 X132.657 Y106.635 E62.17802
G0 F6000 X132.657 Y107.201
G1 F1200 X136.339 Y110.883 E62.35121
G0 F6000 X136.339 Y111.449
G1 F1200 X132.657 Y107.767 E62.5244
G0 F6000 X132.657 Y108.333
G1 F1200 X136.339 Y112.014 E62.69757
G0 F6000 X136.339 Y112.58
G1 F1200 X132.657 Y108.898 E62.87076
G0 F6000 X132.657 Y109.464
G1 F1200 X136.339 Y113.146 E63.04395
G0 F6000 X136.339 Y113.711
G1 F1200 X132.657 Y110.03 E63.21711
G0 F6000 X132.657 Y110.595
G1 F1200 X136.339 Y114.277 E63.3903
G0 F6000 X136.339 Y114.843
G1 F1200 X132.657 Y111.161 E63.56349
G0 F6000 X132.657 Y111.727
G1 F1200 X136.339 Y115.409 E63.73668
G0 F6000 X136.339 Y115.974
G1 F1200 X132.657 Y112.292 E63.90987
G0 F6000 X132.657 Y112.858
G1 F1200 X136.339 Y116.54 E64.08306
G0 F6000 X136.339 Y117.106
G1 F1200 X132.657 Y113.424 E64.25625
G0 F6000 X132.657 Y113.989
G1 F1200 X136.339 Y117.671 E64.42944
G0 F6000 X136.339 Y118.237
G1 F1200 X132.656 Y114.554 E64.60268
G0 F6000 X132.656 Y115.12
G1 F1200 X136.339 Y118.803 E64.77592
G0 F6000 X136.339 Y119.368
G1 F1200 X132.656 Y115.686 E64.94913
G0 F6000 X132.656 Y116.251
G1 F1200 X136.339 Y119.934 E65.12237
G0 F6000 X136.339 Y120.5
G1 F1200 X132.656 Y116.817 E65.2956
G0 F6000 X132.656 Y117.383
G1 F1200 X136.339 Y121.065 E65.46882
G0 F6000 X136.339 Y121.631
G1 F1200 X132.656 Y117.948 E65.64205
G0 F6000 X132.656 Y118.514
G1 F1200 X136.339 Y122.197 E65.81529
G0 F6000 X136.339 Y122.762
G1 F1200 X132.656 Y119.08 E65.9885
G0 F6000 X132.656 Y119.646
G1 F1200 X136.339 Y123.328 E66.16172
G0 F6000 X136.339 Y123.894
G1 F1200 X132.656 Y120.211 E66.33495
G0 F6000 X132.656 Y120.777
G1 F1200 X136.339 Y124.459 E66.50817
G0 F6000 X136.339 Y125.025
G1 F1200 X132.656 Y121.343 E66.68138
G0 F6000 X132.656 Y121.908
G1 F1200 X136.339 Y125.591 E66.85462
G0 F6000 X136.339 Y126.157
G1 F1200 X132.636 Y122.453 E67.02882
G0 F6000 X132.487 Y122.871
G1 F1200 X136.339 Y126.722 E67.20998
G0 F6000 X136.14 Y127.089
G1 F1200 X132.204 Y123.153 E67.39512
G0 F6000 X131.838 Y123.353
G1 F1200 X135.574 Y127.089 E67.57085
G0 F6000 X135.009 Y127.089
G1 F1200 X131.329 Y123.409 E67.74395
G0 F6000 X130.763 Y123.409
G1 F1200 X134.443 Y127.089 E67.91704
G0 F6000 X133.877 Y127.089
G1 F1200 X130.198 Y123.409 E68.09011
G0 F6000 X129.632 Y123.409
G1 F1200 X133.312 Y127.089 E68.26321
G0 F6000 X132.746 Y127.089
G1 F1200 X129.066 Y123.409 E68.43631
G0 F6000 X128.501 Y123.409
G1 F1200 X132.18 Y127.089 E68.60938
G0 F6000 X131.615 Y127.089
G1 F1200 X127.935 Y123.409 E68.78247
G0 F6000 X127.369 Y123.409
G1 F1200 X131.049 Y127.089 E68.95557
G0 F6000 X130.483 Y127.089
G1 F1200 X126.804 Y123.409 E69.12864
G0 F6000 X126.238 Y123.409
G1 F1200 X129.918 Y127.089 E69.30174
G0 F6000 X129.352 Y127.089
G1 F1200 X125.672 Y123.409 E69.47483
G0 F6000 X125.106 Y123.409
G1 F1200 X128.786 Y127.089 E69.64793
G0 F6000 X128.221 Y127.089
G1 F1200 X124.541 Y123.409 E69.82103
G0 F6000 X123.975 Y123.409
G1 F1200 X127.655 Y127.089 E69.99412
G0 F6000 X127.089 Y127.089
G1 F1200 X123.409 Y123.409 E70.16722
G0 F6000 X122.843 Y123.409
G1 F1200 X126.524 Y127.089 E70.34034
G0 F6000 X125.958 Y127.089
G1 F1200 X122.277 Y123.409 E70.51346
G0 F6000 X121.712 Y123.409
G1 F1200 X125.392 Y127.089 E70.68655
G0 F6000 X124.826 Y127.089
G1 F1200 X121.146 Y123.409 E70.85965
G0 F6000 X120.58 Y123.409
G1 F1200 X124.261 Y127.089 E71.03277
G0 F6000 X123.695 Y127.089
G1 F1200 X120.015 Y123.409 E71.20586
G0 F6000 X119.449 Y123.409
G1 F1200 X123.129 Y127.089 E71.37896
G0 F6000 X122.564 Y127.089
G1 F1200 X118.883 Y123.409 E71.55208
